; generated by PrusaSlicer 2.1.0+linux64 on 2019-10-07 at 11:50:24 UTC

; 

; external perimeters extrusion width = 0.45mm
; perimeters extrusion width = 0.45mm
; infill extrusion width = 0.45mm
; solid infill extrusion width = 0.45mm
; top infill extrusion width = 0.40mm
; first layer extrusion width = 0.42mm

M73 P0 R19
M73 Q0 S19
M201 X1000 Y1000 Z1000 E5000 ; sets maximum accelerations, mm/sec^2
M203 X200 Y200 Z12 E120 ; sets maximum feedrates, mm/sec
M204 P1250 R1250 T1250 ; sets acceleration (P, T) and retract acceleration (R), mm/sec^2
M205 X8.00 Y8.00 Z0.40 E1.50 ; sets the jerk limits, mm/sec
M205 S0 T0 ; sets the minimum extruding and travel feed rate, mm/sec
M107
M862.3 P "MK3" ; printer model check
M862.1 P0.4 ; nozzle diameter check
M115 U3.8.0 ; tell printer latest fw version
G90 ; use absolute coordinates
M83 ; extruder relative mode
M104 S215 ; set extruder temp
M140 S60 ; set bed temp
M190 S60 ; wait for bed temp
M109 S215 ; wait for extruder temp
G28 W ; home all without mesh bed level
G80 ; mesh bed leveling
G1 Y-3.0 F1000.0 ; go outside print area
G92 E0.0
G1 X60.0 E9.0 F1000.0 ; intro line
M73 Q0 S19
M73 P0 R19
G1 X100.0 E12.5 F1000.0 ; intro line
G92 E0.0
M221 S95
G21 ; set units to millimeters
G90 ; use absolute coordinates
M83 ; use relative distances for extrusion
M900 K30 ; Filament gcode
;BEFORE_LAYER_CHANGE
G92 E0.0
;0.2


G1 E-0.80000 F2100.00000
G1 Z0.600 F10800.000
;AFTER_LAYER_CHANGE
;0.2
G1 X96.463 Y90.261
G1 Z0.200
G1 E0.80000 F2100.00000
M204 S1000
G1 F1200
G1 X97.411 Y90.008 E0.03078
G1 X98.405 Y89.912 E0.03130
G1 X151.568 Y89.911 E1.66690
G1 X152.639 Y90.017 E0.03374
G1 X153.674 Y90.312 E0.03375
G1 X154.706 Y90.821 E0.03607
G1 X155.599 Y91.497 E0.03510
G1 X156.367 Y92.339 E0.03575
G1 X156.948 Y93.279 E0.03464
G1 X157.361 Y94.347 E0.03589
G1 X157.567 Y95.473 E0.03592
G1 X157.590 Y109.038 E0.42532
G1 X157.451 Y110.294 E0.03961
G1 X157.221 Y111.089 E0.02595
G1 X156.914 Y111.789 E0.02397
G1 X156.050 Y113.048 E0.04787
G1 X154.877 Y114.068 E0.04875
G1 X153.534 Y114.741 E0.04709
G1 X138.392 Y119.789 E0.50044
G1 X137.356 Y120.029 E0.03334
G1 X136.590 Y120.086 E0.02411
G1 X113.131 Y120.079 E0.73552
G1 X111.631 Y119.797 E0.04786
G1 X96.035 Y114.569 E0.51575
G1 X95.016 Y113.994 E0.03670
G1 X94.053 Y113.162 E0.03989
G1 X93.288 Y112.149 E0.03982
G1 X92.780 Y111.092 E0.03676
G1 X92.508 Y110.082 E0.03280
G1 X92.412 Y109.116 E0.03042
G1 X92.409 Y95.973 E0.41210
G1 X92.495 Y94.991 E0.03091
G1 X92.667 Y94.251 E0.02380
G1 X92.966 Y93.460 E0.02652
G1 X93.388 Y92.692 E0.02750
G1 X93.870 Y92.045 E0.02527
G1 X94.450 Y91.452 E0.02602
G1 X95.077 Y90.963 E0.02492
G1 X96.409 Y90.288 E0.04685
G1 F8640
G1 X97.411 Y90.008 E-0.24023
G1 X98.405 Y89.912 E-0.23052
G1 X99.658 Y89.912 E-0.28925
G1 E-0.04000 F2100.00000
G1 Z0.800 F10800.000
G1 X142.144 Y114.709
G1 Z0.200
G1 E0.80000 F2100.00000
G1 F1200
G1 X142.001 Y115.543 E0.02652
G1 X141.466 Y116.826 E0.04359
G1 X140.414 Y118.163 E0.05335
G1 X139.430 Y118.904 E0.03862
G1 X138.311 Y119.420 E0.03864
G1 X136.858 Y119.702 E0.04639
G1 X113.266 Y119.709 E0.73973
G1 X112.489 Y119.624 E0.02449
G1 X111.112 Y119.189 E0.04529
G1 X110.061 Y118.561 E0.03839
G1 X109.217 Y117.780 E0.03603
G1 X108.496 Y116.757 E0.03924
G1 X108.034 Y115.663 E0.03723
G1 X107.855 Y114.704 E0.03060
G1 X97.779 Y114.666 E0.31594
G1 X96.478 Y114.346 E0.04199
G1 X95.662 Y113.958 E0.02834
G1 X94.919 Y113.453 E0.02816
G1 X93.747 Y112.180 E0.05424
G1 X93.360 Y111.492 E0.02478
G1 X93.055 Y110.742 E0.02537
G1 X92.786 Y109.165 E0.05018
G1 X92.793 Y95.759 E0.42032
G1 X92.880 Y94.974 E0.02475
G1 X93.245 Y93.760 E0.03978
G1 X93.790 Y92.769 E0.03543
G1 X94.428 Y91.992 E0.03154
G1 X95.499 Y91.141 E0.04288
G1 X96.761 Y90.558 E0.04360
G1 X98.252 Y90.288 E0.04751
G1 X151.744 Y90.290 E1.67720
G1 X152.759 Y90.428 E0.03211
G1 X153.712 Y90.733 E0.03138
G1 X154.572 Y91.183 E0.03042
G1 X155.379 Y91.806 E0.03198
G1 X156.095 Y92.606 E0.03366
G1 X156.668 Y93.552 E0.03468
G1 X157.171 Y95.316 E0.05752
G1 X157.214 Y109.155 E0.43390
G1 X157.029 Y110.437 E0.04062
G1 X156.594 Y111.586 E0.03850
G1 X156.113 Y112.372 E0.02891
G1 X155.483 Y113.098 E0.03013
G1 X154.422 Y113.907 E0.04183
G1 X153.267 Y114.432 E0.03978
G1 X151.962 Y114.694 E0.04174
G1 X142.204 Y114.709 E0.30597
G1 X141.822 Y114.332 F10800.000
G1 F1200
G1 X141.644 Y115.418 E0.03451
G1 X141.127 Y116.657 E0.04207
G1 X140.168 Y117.877 E0.04867
G1 X139.220 Y118.591 E0.03720
G1 X138.175 Y119.067 E0.03600
G1 X136.806 Y119.328 E0.04372
G1 X113.294 Y119.333 E0.73718
G1 X112.584 Y119.259 E0.02239
G1 X111.247 Y118.836 E0.04398
G1 X110.302 Y118.270 E0.03454
G1 X109.514 Y117.546 E0.03354
G1 X108.817 Y116.557 E0.03794
G1 X108.390 Y115.538 E0.03464
G1 X108.171 Y114.328 E0.03853
G1 X97.804 Y114.289 E0.32508
G1 X96.589 Y113.985 E0.03925
G1 X95.838 Y113.624 E0.02614
G1 X95.181 Y113.180 E0.02486
G1 X94.065 Y111.976 E0.05147
G1 X93.694 Y111.317 E0.02370
G1 X93.412 Y110.620 E0.02359
G1 X93.164 Y109.149 E0.04678
G1 X93.170 Y95.770 E0.41950
G1 X93.252 Y95.033 E0.02324
G1 X93.585 Y93.924 E0.03632
G1 X94.111 Y92.967 E0.03423
G1 X94.706 Y92.248 E0.02924
G1 X95.714 Y91.452 E0.04030
G1 X96.896 Y90.911 E0.04074
G1 X98.269 Y90.666 E0.04373
G1 X151.731 Y90.667 E1.67628
G1 X152.661 Y90.793 E0.02940
G1 X153.553 Y91.075 E0.02934
G1 X154.356 Y91.492 E0.02837
G1 X155.111 Y92.071 E0.02984
G1 X155.782 Y92.816 E0.03143
G1 X156.332 Y93.726 E0.03333
G1 X156.794 Y95.344 E0.05275
G1 X156.837 Y109.142 E0.43264
G1 X156.658 Y110.362 E0.03867
G1 X156.263 Y111.405 E0.03496
G1 X155.817 Y112.137 E0.02689
G1 X155.211 Y112.836 E0.02900
G1 X154.212 Y113.593 E0.03931
G1 X153.132 Y114.079 E0.03712
G1 X151.943 Y114.317 E0.03802
G1 X141.882 Y114.332 E0.31546
G1 X141.456 Y113.956 F10800.000
G1 F1200
G1 X141.448 Y114.277 E0.01007
G1 X141.287 Y115.294 E0.03230
G1 X140.789 Y116.488 E0.04054
G1 X139.920 Y117.591 E0.04404
G1 X139.044 Y118.256 E0.03449
G1 X138.040 Y118.714 E0.03460
G1 X136.754 Y118.954 E0.04102
G1 X113.322 Y118.957 E0.73470
G1 X112.677 Y118.893 E0.02030
G1 X111.420 Y118.500 E0.04130
G1 X110.542 Y117.979 E0.03201
G1 X109.784 Y117.282 E0.03229
G1 X109.156 Y116.392 E0.03413
G1 X108.746 Y115.412 E0.03333
G1 X108.557 Y114.341 E0.03411
G1 X108.548 Y113.953 E0.01216
G1 X97.829 Y113.912 E0.33612
G1 X96.701 Y113.624 E0.03647
G1 X96.036 Y113.303 E0.02318
G1 X95.441 Y112.906 E0.02241
G1 X94.382 Y111.771 E0.04869
G1 X94.039 Y111.164 E0.02184
G1 X93.769 Y110.498 E0.02255
G1 X93.541 Y109.134 E0.04337
G1 X93.547 Y95.781 E0.41867
G1 X93.625 Y95.092 E0.02172
G1 X93.925 Y94.088 E0.03287
G1 X94.433 Y93.165 E0.03302
G1 X94.983 Y92.505 E0.02693
G1 X95.892 Y91.785 E0.03636
G1 X97.031 Y91.264 E0.03926
G1 X98.285 Y91.043 E0.03994
G1 X151.718 Y91.044 E1.67537
G1 X152.593 Y91.164 E0.02767
G1 X153.422 Y91.429 E0.02729
G1 X154.166 Y91.818 E0.02632
G1 X154.867 Y92.359 E0.02775
G1 X155.489 Y93.054 E0.02925
G1 X155.996 Y93.899 E0.03089
G1 X156.417 Y95.371 E0.04800
G1 X156.459 Y109.129 E0.43138
G1 X156.289 Y110.286 E0.03669
G1 X155.931 Y111.224 E0.03146
G1 X155.521 Y111.903 E0.02485
G1 X154.940 Y112.574 E0.02785
G1 X154.003 Y113.279 E0.03675
G1 X152.999 Y113.726 E0.03447
G1 X151.924 Y113.939 E0.03435
G1 X141.516 Y113.956 E0.32636
G1 X141.080 Y113.579 F10800.000
G1 F1200
G1 X141.073 Y114.233 E0.02049
G1 X140.918 Y115.212 E0.03110
G1 X140.452 Y116.317 E0.03758
G1 X139.641 Y117.337 E0.04088
G1 X138.835 Y117.942 E0.03159
G1 X137.907 Y118.361 E0.03194
G1 X136.703 Y118.580 E0.03835
G1 X113.347 Y118.580 E0.73232
G1 X112.769 Y118.527 E0.01821
G1 X111.592 Y118.164 E0.03862
G1 X110.782 Y117.687 E0.02945
G1 X110.054 Y117.018 E0.03100
G1 X109.478 Y116.194 E0.03154
G1 X109.103 Y115.288 E0.03075
G1 X108.931 Y114.293 E0.03166
G1 X108.923 Y113.577 E0.02245
G1 X97.898 Y113.540 E0.34570
G1 X96.847 Y113.276 E0.03397
G1 X96.234 Y112.981 E0.02134
G1 X95.668 Y112.605 E0.02130
G1 X94.699 Y111.566 E0.04454
G1 X94.374 Y110.990 E0.02075
G1 X94.127 Y110.376 E0.02073
G1 X93.918 Y109.118 E0.03999
G1 X93.924 Y95.792 E0.41785
G1 X93.998 Y95.152 E0.02020
G1 X94.266 Y94.252 E0.02945
G1 X94.754 Y93.363 E0.03179
G1 X95.259 Y92.762 E0.02461
G1 X96.070 Y92.118 E0.03246
G1 X97.165 Y91.617 E0.03777
G1 X98.301 Y91.420 E0.03615
G1 X151.706 Y91.421 E1.67447
G1 X152.494 Y91.528 E0.02493
G1 X153.291 Y91.783 E0.02624
G1 X153.974 Y92.144 E0.02423
G1 X154.621 Y92.646 E0.02567
G1 X155.195 Y93.291 E0.02706
G1 X155.660 Y94.071 E0.02846
G1 X156.040 Y95.398 E0.04329
G1 X156.082 Y109.115 E0.43010
G1 X155.919 Y110.210 E0.03471
G1 X155.600 Y111.045 E0.02801
G1 X155.226 Y111.668 E0.02280
G1 X154.668 Y112.311 E0.02668
G1 X153.795 Y112.964 E0.03417
G1 X152.866 Y113.372 E0.03182
G1 X151.906 Y113.562 E0.03071
G1 X141.140 Y113.579 E0.33756
G1 X140.704 Y113.203 F10800.000
G1 F1200
G1 X140.698 Y114.189 E0.03091
G1 X140.549 Y115.131 E0.02992
G1 X140.140 Y116.104 E0.03308
G1 X139.394 Y117.050 E0.03778
G1 X138.626 Y117.627 E0.03013
G1 X137.774 Y118.007 E0.02923
G1 X136.687 Y118.203 E0.03465
G1 X113.356 Y118.203 E0.73152
G1 X112.823 Y118.153 E0.01678
G1 X111.762 Y117.827 E0.03479
G1 X111.021 Y117.395 E0.02692
G1 X110.350 Y116.784 E0.02846
G1 X109.818 Y116.030 E0.02892
G1 X109.460 Y115.164 E0.02939
G1 X109.306 Y114.246 E0.02918
G1 X109.299 Y113.201 E0.03278
G1 X97.966 Y113.169 E0.35532
G1 X96.992 Y112.927 E0.03147
G1 X96.429 Y112.658 E0.01956
G1 X95.927 Y112.330 E0.01882
G1 X95.016 Y111.359 E0.04173
G1 X94.719 Y110.837 E0.01884
G1 X94.484 Y110.255 E0.01967
G1 X94.295 Y109.103 E0.03660
G1 X94.301 Y95.803 E0.41702
G1 X94.370 Y95.212 E0.01867
G1 X94.606 Y94.415 E0.02604
G1 X95.075 Y93.562 E0.03054
G1 X95.534 Y93.020 E0.02226
G1 X96.248 Y92.452 E0.02859
G1 X97.299 Y91.971 E0.03627
G1 X98.317 Y91.797 E0.03236
G1 X151.693 Y91.798 E1.67357
G1 X152.426 Y91.899 E0.02319
G1 X153.159 Y92.136 E0.02416
G1 X153.782 Y92.469 E0.02215
G1 X154.375 Y92.932 E0.02358
G1 X154.900 Y93.527 E0.02488
G1 X155.323 Y94.241 E0.02602
G1 X155.670 Y95.475 E0.04020
G1 X155.705 Y109.102 E0.42726
G1 X155.549 Y110.133 E0.03271
G1 X155.267 Y110.866 E0.02462
G1 X154.929 Y111.434 E0.02073
G1 X154.397 Y112.049 E0.02548
G1 X153.589 Y112.647 E0.03154
G1 X152.736 Y113.018 E0.02916
G1 X151.852 Y113.189 E0.02822
G1 X140.764 Y113.202 E0.34766
G1 X140.327 Y112.826 F10800.000
G1 F1200
G1 X140.324 Y114.144 E0.04134
G1 X140.181 Y115.050 E0.02875
G1 X139.827 Y115.892 E0.02863
G1 X139.146 Y116.765 E0.03472
G1 X138.452 Y117.292 E0.02732
G1 X137.642 Y117.653 E0.02781
G1 X136.670 Y117.826 E0.03094
G1 X113.365 Y117.826 E0.73072
G1 X112.878 Y117.780 E0.01534
G1 X111.932 Y117.490 E0.03102
G1 X111.258 Y117.101 E0.02440
G1 X110.644 Y116.547 E0.02592
G1 X110.158 Y115.866 E0.02625
G1 X109.817 Y115.040 E0.02800
G1 X109.680 Y114.201 E0.02666
G1 X109.675 Y112.824 E0.04316
G1 X98.033 Y112.797 E0.36501
G1 X97.136 Y112.578 E0.02897
G1 X96.624 Y112.336 E0.01774
G1 X96.152 Y112.026 E0.01770
G1 X95.332 Y111.154 E0.03754
G1 X95.053 Y110.662 E0.01773
G1 X94.842 Y110.135 E0.01780
G1 X94.672 Y109.088 E0.03324
G1 X94.678 Y95.815 E0.41619
G1 X94.743 Y95.272 E0.01714
G1 X94.946 Y94.579 E0.02264
G1 X95.396 Y93.761 E0.02927
G1 X95.809 Y93.279 E0.01990
G1 X96.426 Y92.785 E0.02478
G1 X97.433 Y92.324 E0.03474
G1 X98.332 Y92.174 E0.02857
G1 X151.679 Y92.175 E1.67267
M73 Q5 S18
M73 P5 R18
G1 X152.356 Y92.270 E0.02142
G1 X153.025 Y92.489 E0.02206
G1 X153.588 Y92.793 E0.02007
G1 X154.127 Y93.217 E0.02150
G1 X154.604 Y93.761 E0.02269
G1 X154.984 Y94.410 E0.02357
G1 X155.300 Y95.551 E0.03711
G1 X155.328 Y109.088 E0.42445
G1 X155.180 Y110.055 E0.03069
G1 X154.934 Y110.688 E0.02128
G1 X154.633 Y111.201 E0.01865
G1 X154.126 Y111.785 E0.02426
G1 X153.384 Y112.330 E0.02887
G1 X152.607 Y112.663 E0.02650
G1 X151.800 Y112.815 E0.02576
G1 X140.387 Y112.826 E0.35784
G1 X139.951 Y112.449 F10800.000
G1 F1200
G1 X139.947 Y114.128 E0.05265
G1 X139.812 Y114.967 E0.02663
G1 X139.490 Y115.721 E0.02572
G1 X138.899 Y116.480 E0.03016
G1 X138.242 Y116.978 E0.02584
G1 X137.512 Y117.299 E0.02501
G1 X136.654 Y117.449 E0.02730
G1 X113.374 Y117.449 E0.72992
G1 X112.934 Y117.406 E0.01387
G1 X112.065 Y117.137 E0.02852
G1 X111.466 Y116.785 E0.02179
G1 X110.939 Y116.311 E0.02221
G1 X110.477 Y115.664 E0.02493
G1 X110.185 Y114.957 E0.02398
G1 X110.057 Y114.184 E0.02457
G1 X110.050 Y112.448 E0.05444
G1 X98.099 Y112.425 E0.37471
G1 X97.278 Y112.229 E0.02648
G1 X96.820 Y112.013 E0.01588
G1 X96.377 Y111.723 E0.01658
G1 X95.649 Y110.948 E0.03336
G1 X95.387 Y110.487 E0.01660
G1 X95.200 Y110.015 E0.01592
G1 X95.049 Y109.074 E0.02991
G1 X95.055 Y95.826 E0.41536
G1 X95.115 Y95.332 E0.01560
G1 X95.287 Y94.742 E0.01927
G1 X95.717 Y93.961 E0.02796
G1 X96.083 Y93.539 E0.01751
G1 X96.604 Y93.118 E0.02103
G1 X97.567 Y92.678 E0.03318
G1 X98.347 Y92.551 E0.02477
G1 X151.666 Y92.552 E1.67178
G1 X152.285 Y92.641 E0.01963
G1 X152.889 Y92.841 E0.01995
G1 X153.393 Y93.116 E0.01799
G1 X153.879 Y93.501 E0.01943
G1 X154.307 Y93.994 E0.02049
G1 X154.646 Y94.577 E0.02112
G1 X154.929 Y95.625 E0.03403
G1 X154.951 Y109.073 E0.42168
G1 X154.810 Y109.976 E0.02865
G1 X154.601 Y110.511 E0.01801
G1 X154.336 Y110.968 E0.01654
G1 X153.856 Y111.522 E0.02299
G1 X153.181 Y112.012 E0.02615
G1 X152.480 Y112.307 E0.02383
G1 X151.749 Y112.441 E0.02331
G1 X140.011 Y112.449 E0.36804
G1 X139.574 Y112.072 F10800.000
G1 F1200
G1 X139.572 Y114.086 E0.06314
G1 X139.456 Y114.841 E0.02396
G1 X139.153 Y115.551 E0.02419
G1 X138.650 Y116.196 E0.02565
G1 X138.069 Y116.642 E0.02296
G1 X137.382 Y116.944 E0.02355
G1 X136.639 Y117.072 E0.02364
G1 X113.384 Y117.072 E0.72913
G1 X112.991 Y117.033 E0.01237
G1 X112.200 Y116.784 E0.02599
G1 X111.675 Y116.471 E0.01919
G1 X111.234 Y116.075 E0.01856
G1 X110.798 Y115.464 E0.02357
G1 X110.543 Y114.837 E0.02122
G1 X110.432 Y114.140 E0.02211
G1 X110.426 Y112.071 E0.06486
G1 X98.164 Y112.053 E0.38449
G1 X97.420 Y111.879 E0.02394
G1 X96.993 Y111.678 E0.01481
G1 X96.604 Y111.421 E0.01462
G1 X95.965 Y110.741 E0.02925
G1 X95.733 Y110.336 E0.01464
G1 X95.559 Y109.896 E0.01482
G1 X95.426 Y109.059 E0.02657
G1 X95.433 Y95.838 E0.41453
G1 X95.488 Y95.393 E0.01406
G1 X95.628 Y94.905 E0.01593
G1 X96.037 Y94.161 E0.02662
G1 X96.355 Y93.800 E0.01509
G1 X96.784 Y93.450 E0.01734
G1 X97.700 Y93.031 E0.03158
G1 X98.361 Y92.928 E0.02098
G1 X151.652 Y92.930 E1.67090
G1 X152.213 Y93.012 E0.01780
G1 X152.752 Y93.193 E0.01782
G1 X153.197 Y93.438 E0.01591
G1 X153.629 Y93.784 E0.01735
G1 X154.009 Y94.226 E0.01830
G1 X154.306 Y94.742 E0.01867
G1 X154.558 Y95.697 E0.03096
G1 X154.574 Y109.059 E0.41895
G1 X154.441 Y109.896 E0.02659
G1 X154.267 Y110.336 E0.01483
G1 X154.039 Y110.735 E0.01442
G1 X153.586 Y111.258 E0.02169
G1 X152.979 Y111.692 E0.02338
G1 X152.356 Y111.951 E0.02116
G1 X151.700 Y112.067 E0.02088
G1 X139.634 Y112.072 E0.37833
G1 X139.197 Y111.695 F10800.000
G1 F1200
G1 X139.197 Y114.043 E0.07362
G1 X139.087 Y114.759 E0.02272
G1 X138.817 Y115.378 E0.02116
G1 X138.401 Y115.911 E0.02121
G1 X137.859 Y116.328 E0.02145
G1 X137.254 Y116.589 E0.02063
G1 X136.623 Y116.695 E0.02006
G1 X113.394 Y116.695 E0.72835
G1 X113.049 Y116.660 E0.01085
G1 X112.338 Y116.432 E0.02343
G1 X111.885 Y116.158 E0.01658
G1 X111.527 Y115.837 E0.01507
G1 X111.138 Y115.300 E0.02080
G1 X110.901 Y114.716 E0.01977
G1 X110.807 Y114.098 E0.01959
G1 X110.803 Y111.695 E0.07536
G1 X98.227 Y111.681 E0.39432
G1 X97.562 Y111.529 E0.02138
G1 X97.166 Y111.343 E0.01371
G1 X96.831 Y111.119 E0.01264
G1 X96.280 Y110.533 E0.02522
G1 X96.078 Y110.184 E0.01266
G1 X95.917 Y109.777 E0.01371
G1 X95.803 Y109.045 E0.02323
G1 X95.810 Y95.851 E0.41369
G1 X95.860 Y95.455 E0.01253
G1 X95.969 Y95.067 E0.01261
G1 X96.356 Y94.363 E0.02521
G1 X96.626 Y94.063 E0.01265
G1 X96.966 Y93.781 E0.01383
G1 X97.786 Y93.399 E0.02837
G1 X98.376 Y93.305 E0.01874
G1 X151.637 Y93.307 E1.66997
G1 X152.140 Y93.382 E0.01593
G1 X152.613 Y93.544 E0.01568
G1 X152.998 Y93.759 E0.01382
G1 X153.377 Y94.065 E0.01529
G1 X153.710 Y94.456 E0.01609
G1 X153.965 Y94.906 E0.01621
G1 X154.187 Y95.767 E0.02790
G1 X154.197 Y109.044 E0.41629
G1 X154.083 Y109.777 E0.02325
G1 X153.922 Y110.184 E0.01371
G1 X153.722 Y110.530 E0.01252
G1 X153.317 Y110.992 E0.01926
G1 X152.781 Y111.371 E0.02061
G1 X152.234 Y111.593 E0.01849
G1 X151.653 Y111.692 E0.01848
