; generated by PrusaSlicer 2.1.0+linux64 on 2019-10-07 at 11:49:34 UTC

; 

; external perimeters extrusion width = 0.45mm
; perimeters extrusion width = 0.45mm
; infill extrusion width = 0.45mm
; solid infill extrusion width = 0.45mm
; top infill extrusion width = 0.40mm
; first layer extrusion width = 0.42mm

M73 P0 R87
M73 Q0 S88
M201 X1000 Y1000 Z1000 E5000 ; sets maximum accelerations, mm/sec^2
M203 X200 Y200 Z12 E120 ; sets maximum feedrates, mm/sec
M204 P1250 R1250 T1250 ; sets acceleration (P, T) and retract acceleration (R), mm/sec^2
M205 X8.00 Y8.00 Z0.40 E1.50 ; sets the jerk limits, mm/sec
M205 S0 T0 ; sets the minimum extruding and travel feed rate, mm/sec
M107
M862.3 P "MK3" ; printer model check
M862.1 P0.4 ; nozzle diameter check
M115 U3.8.0 ; tell printer latest fw version
G90 ; use absolute coordinates
M83 ; extruder relative mode
M104 S215 ; set extruder temp
M140 S60 ; set bed temp
M190 S60 ; wait for bed temp
M109 S215 ; wait for extruder temp
G28 W ; home all without mesh bed level
G80 ; mesh bed leveling
G1 Y-3.0 F1000.0 ; go outside print area
G92 E0.0
G1 X60.0 E9.0 F1000.0 ; intro line
M73 Q0 S88
M73 P0 R87
G1 X100.0 E12.5 F1000.0 ; intro line
G92 E0.0
M221 S95
G21 ; set units to millimeters
G90 ; use absolute coordinates
M83 ; use relative distances for extrusion
M900 K30 ; Filament gcode
;BEFORE_LAYER_CHANGE
G92 E0.0
;0.2


G1 E-0.80000 F2100.00000
G1 Z0.600 F10800.000
;AFTER_LAYER_CHANGE
;0.2
G1 X86.146 Y72.502
G1 Z0.200
G1 E0.80000 F2100.00000
M204 S1000
G1 F1200
G1 X86.999 Y71.476 E0.04183
G1 X88.046 Y70.616 E0.04248
G1 X89.116 Y70.023 E0.03836
G1 X90.468 Y69.578 E0.04461
G1 X91.725 Y69.416 E0.03976
G1 X158.131 Y69.413 E2.08211
G1 X159.332 Y69.536 E0.03785
G1 X160.488 Y69.863 E0.03768
G1 X161.717 Y70.462 E0.04286
G1 X162.749 Y71.238 E0.04049
G1 X163.655 Y72.223 E0.04196
G1 X164.309 Y73.267 E0.03863
G1 X164.830 Y74.596 E0.04475
G1 X165.062 Y75.890 E0.04120
G1 X165.088 Y133.667 E1.81157
G1 X164.917 Y135.050 E0.04370
G1 X164.540 Y136.235 E0.03897
G1 X163.844 Y137.513 E0.04562
G1 X163.001 Y138.524 E0.04130
G1 X161.952 Y139.386 E0.04256
G1 X160.884 Y139.977 E0.03828
G1 X159.528 Y140.423 E0.04474
G1 X158.275 Y140.584 E0.03961
G1 X91.869 Y140.587 E2.08212
G1 X90.520 Y140.434 E0.04256
G1 X89.111 Y139.975 E0.04647
G1 X88.003 Y139.355 E0.03980
G1 X86.887 Y138.412 E0.04581
G1 X86.116 Y137.454 E0.03856
G1 X85.443 Y136.196 E0.04474
G1 X85.082 Y135.047 E0.03777
G1 X84.912 Y133.659 E0.04383
G1 X84.909 Y76.489 E1.79254
G1 X85.067 Y75.023 E0.04623
G1 X85.440 Y73.811 E0.03975
G1 X86.117 Y72.554 E0.04476
G1 F8640
G1 X86.999 Y71.476 E-0.32163
G1 X88.046 Y70.616 E-0.31285
G1 X88.521 Y70.352 E-0.12552
G1 E-0.04000 F2100.00000
G1 Z0.800 F10800.000
G1 X87.287 Y109.149
G1 Z0.200
G1 E0.80000 F2100.00000
G1 F1200
G1 X87.287 Y100.851 E0.26017
G1 X87.042 Y100.675 E0.00944
G1 X86.038 Y99.589 E0.04639
G1 X85.524 Y98.564 E0.03594
G1 X85.287 Y97.429 E0.03637
G1 X85.287 Y76.395 E0.65950
G1 X85.344 Y75.625 E0.02420
G1 X85.486 Y74.877 E0.02387
G1 X85.711 Y74.152 E0.02380
G1 X86.017 Y73.452 E0.02396
G1 X86.678 Y72.406 E0.03880
G1 X87.097 Y71.914 E0.02028
G1 X87.569 Y71.455 E0.02064
G1 X88.392 Y70.839 E0.03221
G1 X89.322 Y70.343 E0.03307
G1 X89.938 Y70.111 E0.02061
G1 X90.559 Y69.942 E0.02021
G1 X91.731 Y69.790 E0.03704
G1 X158.281 Y69.792 E2.08662
G1 X159.078 Y69.874 E0.02513
G1 X159.863 Y70.050 E0.02522
G1 X160.758 Y70.380 E0.02991
G1 X161.464 Y70.750 E0.02499
G1 X162.107 Y71.189 E0.02440
G1 X162.781 Y71.787 E0.02826
G1 X163.322 Y72.408 E0.02580
G1 X163.773 Y73.073 E0.02520
G1 X164.179 Y73.876 E0.02822
G1 X164.452 Y74.646 E0.02561
G1 X164.628 Y75.430 E0.02521
G1 X164.708 Y76.285 E0.02692
G1 X164.712 Y133.622 E1.79777
G1 X164.665 Y134.304 E0.02142
G1 X164.550 Y134.977 E0.02142
G1 X164.166 Y136.160 E0.03898
G1 X163.836 Y136.818 E0.02307
G1 X163.438 Y137.436 E0.02307
G1 X162.975 Y138.007 E0.02304
G1 X162.444 Y138.533 E0.02345
G1 X161.612 Y139.158 E0.03262
G1 X160.678 Y139.657 E0.03322
G1 X160.062 Y139.889 E0.02062
G1 X159.441 Y140.058 E0.02019
G1 X158.269 Y140.210 E0.03706
G1 X91.730 Y140.210 E2.08627
G1 X90.541 Y140.054 E0.03761
G1 X89.854 Y139.861 E0.02237
G1 X89.189 Y139.597 E0.02245
G1 X88.517 Y139.239 E0.02385
G1 X87.878 Y138.800 E0.02433
G1 X87.095 Y138.082 E0.03331
G1 X86.618 Y137.512 E0.02330
G1 X86.216 Y136.910 E0.02270
G1 X85.798 Y136.069 E0.02945
G1 X85.451 Y134.982 E0.03579
G1 X85.338 Y134.329 E0.02076
G1 X85.290 Y133.672 E0.02068
G1 X85.286 Y112.511 E0.66348
G1 X85.588 Y111.277 E0.03981
G1 X86.077 Y110.353 E0.03278
G1 X87.048 Y109.319 E0.04449
G1 X87.238 Y109.184 E0.00730
G1 X87.664 Y109.349 F10800.000
G1 F1200
G1 X87.664 Y100.651 E0.27273
G1 X87.302 Y100.401 E0.01377
G1 X86.362 Y99.395 E0.04316
G1 X85.872 Y98.417 E0.03430
G1 X85.664 Y97.409 E0.03226
G1 X85.664 Y76.402 E0.65869
G1 X85.717 Y75.684 E0.02256
G1 X85.849 Y74.978 E0.02254
G1 X86.060 Y74.293 E0.02245
G1 X86.357 Y73.616 E0.02317
G1 X86.973 Y72.640 E0.03620
G1 X87.378 Y72.165 E0.01957
G1 X87.823 Y71.734 E0.01941
G1 X88.606 Y71.150 E0.03063
G1 X89.467 Y70.691 E0.03059
G1 X90.045 Y70.473 E0.01939
G1 X90.646 Y70.309 E0.01952
G1 X91.743 Y70.168 E0.03468
G1 X158.271 Y70.169 E2.08593
G1 X159.028 Y70.248 E0.02385
G1 X159.767 Y70.415 E0.02378
G1 X160.615 Y70.729 E0.02835
G1 X161.279 Y71.078 E0.02350
G1 X161.883 Y71.493 E0.02300
G1 X162.521 Y72.061 E0.02676
G1 X163.029 Y72.646 E0.02432
G1 X163.454 Y73.274 E0.02375
G1 X163.836 Y74.034 E0.02670
G1 X164.093 Y74.760 E0.02413
G1 X164.257 Y75.500 E0.02376
G1 X164.332 Y76.311 E0.02553
G1 X164.335 Y133.603 E1.79637
G1 X164.292 Y134.250 E0.02032
G1 X164.181 Y134.900 E0.02069
G1 X163.822 Y136.003 E0.03637
G1 X163.504 Y136.640 E0.02230
G1 X163.127 Y137.223 E0.02177
G1 X162.690 Y137.761 E0.02175
G1 X162.188 Y138.256 E0.02208
G1 X161.398 Y138.848 E0.03097
G1 X160.533 Y139.309 E0.03072
G1 X159.954 Y139.527 E0.01940
G1 X159.354 Y139.691 E0.01949
G1 X158.257 Y139.832 E0.03470
G1 X91.743 Y139.832 E2.08551
G1 X90.630 Y139.687 E0.03518
G1 X89.966 Y139.501 E0.02162
G1 X89.339 Y139.250 E0.02118
G1 X88.705 Y138.912 E0.02254
G1 X88.103 Y138.497 E0.02292
G1 X87.359 Y137.813 E0.03167
G1 X86.914 Y137.279 E0.02180
G1 X86.537 Y136.711 E0.02137
G1 X86.142 Y135.915 E0.02789
G1 X85.820 Y134.904 E0.03325
G1 X85.713 Y134.292 E0.01948
G1 X85.667 Y133.664 E0.01973
G1 X85.664 Y112.534 E0.66253
G1 X85.948 Y111.392 E0.03690
G1 X86.397 Y110.555 E0.02979
G1 X87.307 Y109.595 E0.04148
G1 X87.614 Y109.383 E0.01170
G1 X88.041 Y109.552 F10800.000
G1 F1200
G1 X88.041 Y100.448 E0.28543
G1 X87.561 Y100.126 E0.01814
G1 X86.686 Y99.199 E0.03996
G1 X86.236 Y98.314 E0.03113
G1 X86.041 Y97.390 E0.02963
G1 X86.041 Y76.409 E0.65784
G1 X86.092 Y75.723 E0.02156
G1 X86.218 Y75.059 E0.02119
G1 X86.417 Y74.416 E0.02112
G1 X86.696 Y73.781 E0.02173
G1 X87.269 Y72.874 E0.03364
G1 X87.648 Y72.430 E0.01831
G1 X88.077 Y72.014 E0.01873
G1 X88.819 Y71.461 E0.02902
G1 X89.611 Y71.040 E0.02813
G1 X90.170 Y70.829 E0.01873
G1 X90.732 Y70.676 E0.01826
G1 X91.755 Y70.545 E0.03234
G1 X158.261 Y70.546 E2.08524
G1 X158.977 Y70.622 E0.02257
G1 X159.672 Y70.780 E0.02234
G1 X160.451 Y71.069 E0.02606
G1 X161.075 Y71.395 E0.02208
G1 X161.660 Y71.797 E0.02226
G1 X162.260 Y72.333 E0.02524
G1 X162.736 Y72.884 E0.02283
G1 X163.134 Y73.474 E0.02231
G1 X163.494 Y74.192 E0.02519
G1 X163.733 Y74.874 E0.02266
G1 X163.886 Y75.569 E0.02232
G1 X163.955 Y76.336 E0.02414
G1 X163.959 Y133.584 E1.79498
G1 X163.916 Y134.215 E0.01982
G1 X163.812 Y134.823 E0.01935
G1 X163.478 Y135.848 E0.03379
G1 X163.181 Y136.444 E0.02090
G1 X162.828 Y136.993 E0.02046
G1 X162.404 Y137.515 E0.02108
G1 X161.933 Y137.978 E0.02070
G1 X161.207 Y138.522 E0.02845
G1 X160.388 Y138.960 E0.02912
G1 X159.830 Y139.171 E0.01872
G1 X159.268 Y139.324 E0.01824
G1 X158.245 Y139.455 E0.03235
G1 X91.755 Y139.455 E2.08475
M73 Q1 S87
G1 X90.718 Y139.321 E0.03278
G1 X90.096 Y139.147 E0.02024
G1 X89.489 Y138.904 E0.02052
M73 P1 R86
G1 X88.892 Y138.585 E0.02121
G1 X88.328 Y138.195 E0.02150
G1 X87.625 Y137.545 E0.03003
G1 X87.211 Y137.047 E0.02031
G1 X86.858 Y136.513 E0.02005
G1 X86.486 Y135.761 E0.02633
G1 X86.190 Y134.827 E0.03072
G1 X86.086 Y134.236 E0.01879
G1 X86.044 Y133.658 E0.01820
G1 X86.041 Y112.558 E0.66156
G1 X86.307 Y111.508 E0.03395
G1 X86.715 Y110.758 E0.02680
G1 X87.564 Y109.871 E0.03847
G1 X87.991 Y109.585 E0.01612
G1 X88.418 Y109.756 F10800.000
G1 F1200
G1 X88.418 Y100.244 E0.29825
G1 X87.817 Y99.849 E0.02253
G1 X87.008 Y99.001 E0.03675
G1 X86.599 Y98.209 E0.02794
G1 X86.418 Y97.369 E0.02695
G1 X86.419 Y76.416 E0.65698
G1 X86.467 Y75.762 E0.02056
G1 X86.586 Y75.141 E0.01982
G1 X86.774 Y74.538 E0.01978
G1 X87.035 Y73.946 E0.02029
G1 X87.565 Y73.108 E0.03108
G1 X87.929 Y72.681 E0.01760
G1 X88.330 Y72.293 E0.01749
G1 X89.009 Y71.787 E0.02657
G1 X89.757 Y71.388 E0.02656
G1 X90.278 Y71.190 E0.01748
G1 X90.819 Y71.043 E0.01756
G1 X91.767 Y70.922 E0.02999
G1 X158.251 Y70.923 E2.08454
G1 X158.925 Y70.995 E0.02127
G1 X159.575 Y71.144 E0.02090
G1 X160.308 Y71.417 E0.02452
G1 X160.889 Y71.724 E0.02059
G1 X161.436 Y72.100 E0.02083
G1 X161.999 Y72.606 E0.02372
G1 X162.443 Y73.121 E0.02135
G1 X162.814 Y73.674 E0.02086
G1 X163.151 Y74.349 E0.02367
G1 X163.373 Y74.987 E0.02118
G1 X163.515 Y75.638 E0.02087
G1 X163.579 Y76.361 E0.02276
G1 X163.582 Y133.566 E1.79363
G1 X163.543 Y134.161 E0.01869
G1 X163.442 Y134.746 E0.01861
G1 X163.134 Y135.693 E0.03122
G1 X162.858 Y136.249 E0.01949
G1 X162.517 Y136.780 E0.01979
G1 X162.118 Y137.268 E0.01975
G1 X161.678 Y137.699 E0.01932
G1 X160.993 Y138.212 E0.02682
G1 X160.243 Y138.612 E0.02665
G1 X159.722 Y138.810 E0.01748
G1 X159.182 Y138.956 E0.01754
G1 X158.233 Y139.078 E0.03001
G1 X91.767 Y139.078 E2.08399
G1 X90.807 Y138.954 E0.03036
G1 X90.208 Y138.787 E0.01949
G1 X89.639 Y138.558 E0.01922
G1 X89.081 Y138.258 E0.01988
G1 X88.554 Y137.893 E0.02008
G1 X87.890 Y137.277 E0.02838
G1 X87.509 Y136.815 E0.01881
G1 X87.180 Y136.316 E0.01873
G1 X86.831 Y135.607 E0.02477
G1 X86.559 Y134.749 E0.02823
G1 X86.462 Y134.199 E0.01752
G1 X86.421 Y133.650 E0.01724
G1 X86.418 Y112.582 E0.66058
G1 X86.666 Y111.627 E0.03094
G1 X87.033 Y110.963 E0.02380
G1 X87.819 Y110.149 E0.03548
G1 X88.368 Y109.789 E0.02057
G1 X88.795 Y110.027 F10800.000
G1 F1200
G1 X88.795 Y99.973 E0.31522
G1 X88.541 Y99.874 E0.00854
G1 X88.072 Y99.570 E0.01751
G1 X87.328 Y98.801 E0.03356
G1 X86.961 Y98.103 E0.02473
G1 X86.795 Y97.348 E0.02422
G1 X86.796 Y76.422 E0.65612
G1 X86.840 Y75.821 E0.01891
G1 X86.949 Y75.242 E0.01846
G1 X87.131 Y74.661 E0.01909
G1 X87.374 Y74.112 E0.01884
G1 X87.861 Y73.342 E0.02857
G1 X88.198 Y72.945 E0.01631
G1 X88.583 Y72.573 E0.01681
G1 X89.223 Y72.098 E0.02498
G1 X89.901 Y71.736 E0.02412
G1 X90.403 Y71.546 E0.01681
G1 X90.904 Y71.411 E0.01628
G1 X91.779 Y71.299 E0.02767
G1 X158.240 Y71.300 E2.08384
G1 X158.873 Y71.369 E0.01995
G1 X159.477 Y71.509 E0.01945
G1 X160.163 Y71.766 E0.02298
G1 X160.702 Y72.051 E0.01911
G1 X161.211 Y72.403 E0.01941
G1 X161.737 Y72.877 E0.02220
G1 X162.149 Y73.358 E0.01986
G1 X162.494 Y73.873 E0.01942
G1 X162.807 Y74.506 E0.02215
G1 X163.013 Y75.099 E0.01970
G1 X163.144 Y75.705 E0.01943
G1 X163.203 Y76.385 E0.02139
G1 X163.205 Y133.548 E1.79231
G1 X163.169 Y134.107 E0.01756
G1 X163.073 Y134.668 E0.01786
G1 X162.790 Y135.538 E0.02867
G1 X162.535 Y136.055 E0.01809
G1 X162.217 Y136.551 E0.01846
G1 X161.847 Y137.006 E0.01841
G1 X161.423 Y137.421 E0.01859
G1 X160.802 Y137.886 E0.02433
G1 X160.098 Y138.264 E0.02505
G1 X159.597 Y138.454 E0.01680
G1 X159.096 Y138.589 E0.01626
G1 X158.221 Y138.701 E0.02768
G1 X91.779 Y138.701 E2.08324
G1 X90.894 Y138.587 E0.02797
G1 X90.338 Y138.433 E0.01809
G1 X89.790 Y138.212 E0.01854
G1 X89.270 Y137.931 E0.01853
G1 X88.781 Y137.591 E0.01867
G1 X88.157 Y137.010 E0.02673
G1 X87.807 Y136.584 E0.01731
G1 X87.501 Y136.119 E0.01743
G1 X87.176 Y135.454 E0.02321
G1 X86.928 Y134.671 E0.02577
G1 X86.837 Y134.161 E0.01624
G1 X86.798 Y133.643 E0.01627
G1 X86.795 Y112.607 E0.65956
G1 X87.023 Y111.748 E0.02788
G1 X87.348 Y111.170 E0.02079
G1 X88.073 Y110.429 E0.03251
G1 X88.541 Y110.126 E0.01747
G1 X88.739 Y110.049 E0.00666
G1 X89.172 Y110.295 F10800.000
G1 F1200
G1 X89.172 Y99.705 E0.33207
G1 X88.723 Y99.543 E0.01496
G1 X88.325 Y99.290 E0.01477
G1 X87.647 Y98.598 E0.03038
G1 X87.323 Y97.993 E0.02151
G1 X87.172 Y97.327 E0.02143
G1 X87.173 Y76.429 E0.65523
G1 X87.212 Y75.880 E0.01725
G1 X87.318 Y75.324 E0.01776
G1 X87.487 Y74.785 E0.01770
G1 X87.713 Y74.278 E0.01740
G1 X88.157 Y73.576 E0.02606
G1 X88.479 Y73.197 E0.01559
G1 X88.836 Y72.853 E0.01554
G1 X89.413 Y72.424 E0.02255
G1 X90.047 Y72.084 E0.02255
G1 X90.510 Y71.908 E0.01553
G1 X90.990 Y71.778 E0.01558
G1 X91.791 Y71.676 E0.02533
G1 X158.230 Y71.677 E2.08314
G1 X158.820 Y71.742 E0.01862
G1 X159.379 Y71.873 E0.01800
G1 X160.018 Y72.114 E0.02143
G1 X160.515 Y72.379 E0.01763
G1 X160.986 Y72.706 E0.01799
G1 X161.475 Y73.148 E0.02067
G1 X161.855 Y73.594 E0.01837
G1 X162.173 Y74.071 E0.01798
G1 X162.464 Y74.661 E0.02063
G1 X162.653 Y75.211 E0.01822
G1 X162.773 Y75.772 E0.01799
G1 X162.826 Y76.408 E0.02002
G1 X162.828 Y133.542 E1.79138
G1 X162.794 Y134.072 E0.01667
G1 X162.704 Y134.590 E0.01649
G1 X162.446 Y135.383 E0.02614
G1 X162.201 Y135.878 E0.01732
G1 X161.906 Y136.338 E0.01712
G1 X161.562 Y136.759 E0.01707
G1 X161.169 Y137.143 E0.01720
G1 X160.588 Y137.575 E0.02271
G1 X159.952 Y137.916 E0.02261
G1 X159.490 Y138.092 E0.01553
G1 X159.011 Y138.222 E0.01556
G1 X158.209 Y138.324 E0.02534
G1 X91.791 Y138.324 E2.08248
G1 X90.982 Y138.220 E0.02557
G1 X90.450 Y138.072 E0.01732
G1 X89.941 Y137.867 E0.01720
G1 X89.459 Y137.605 E0.01719
G1 X89.008 Y137.290 E0.01725
G1 X88.424 Y136.744 E0.02508
G1 X88.105 Y136.353 E0.01580
G1 X87.824 Y135.923 E0.01613
G1 X87.521 Y135.302 E0.02166
G1 X87.297 Y134.593 E0.02332
G1 X87.210 Y134.104 E0.01555
G1 X87.175 Y133.623 E0.01515
G1 X87.172 Y112.633 E0.65810
G1 X87.380 Y111.872 E0.02474
G1 X87.662 Y111.380 E0.01779
G1 X88.326 Y110.710 E0.02955
G1 X88.723 Y110.457 E0.01477
G1 X89.115 Y110.316 E0.01308
G1 X89.549 Y110.566 F10800.000
G1 F1200
G1 X89.549 Y99.434 E0.34905
G1 X88.905 Y99.212 E0.02134
G1 X88.547 Y98.984 E0.01333
G1 X87.937 Y98.356 E0.02743
G1 X87.669 Y97.842 E0.01819
G1 X87.549 Y97.306 E0.01721
G1 X87.550 Y76.436 E0.65437
G1 X87.587 Y75.919 E0.01625
G1 X87.686 Y75.406 E0.01638
G1 X87.843 Y74.910 E0.01632
G1 X88.051 Y74.445 E0.01596
G1 X88.454 Y73.809 E0.02360
G1 X88.748 Y73.461 E0.01428
G1 X89.089 Y73.133 E0.01484
G1 X89.626 Y72.735 E0.02097
G1 X90.193 Y72.432 E0.02014
G1 X90.635 Y72.264 E0.01485
G1 X91.075 Y72.146 E0.01427
G1 X91.803 Y72.053 E0.02302
G1 X158.219 Y72.054 E2.08243
G1 X158.766 Y72.116 E0.01727
G1 X159.280 Y72.237 E0.01656
G1 X159.852 Y72.453 E0.01915
G1 X160.327 Y72.706 E0.01689
G1 X160.760 Y73.008 E0.01654
G1 X161.212 Y73.419 E0.01915
G1 X161.560 Y73.829 E0.01688
G1 X161.852 Y74.269 E0.01654
G1 X162.120 Y74.816 E0.01911
G1 X162.292 Y75.321 E0.01674
G1 X162.401 Y75.838 E0.01656
G1 X162.450 Y76.431 E0.01866
G1 X162.451 Y133.536 E1.79047
G1 X162.418 Y134.037 E0.01576
G1 X162.335 Y134.512 E0.01511
G1 X162.102 Y135.229 E0.02364
G1 X161.878 Y135.684 E0.01591
G1 X161.607 Y136.108 E0.01576
G1 X161.277 Y136.512 E0.01638
G1 X160.915 Y136.863 E0.01580
G1 X160.397 Y137.250 E0.02027
G1 X159.807 Y137.568 E0.02103
G1 X159.365 Y137.736 E0.01483
G1 X158.925 Y137.854 E0.01425
G1 X158.197 Y137.947 E0.02303
G1 X91.803 Y137.947 E2.08173
G1 X91.069 Y137.853 E0.02320
G1 X90.581 Y137.718 E0.01589
G1 X90.093 Y137.521 E0.01650
G1 X89.650 Y137.280 E0.01582
G1 X89.236 Y136.989 E0.01584
G1 X88.692 Y136.478 E0.02342
G1 X88.405 Y136.124 E0.01429
G1 X88.146 Y135.727 E0.01485
G1 X87.867 Y135.150 E0.02011
G1 X87.666 Y134.514 E0.02091
G1 X87.585 Y134.067 E0.01425
G1 X87.551 Y133.602 E0.01461
G1 X87.549 Y112.660 E0.65661
G1 X87.736 Y111.998 E0.02158
G1 X87.949 Y111.626 E0.01342
G1 X88.546 Y111.016 E0.02677
G1 X88.905 Y110.788 E0.01334
G1 X89.492 Y110.586 E0.01946
G1 X89.926 Y110.943 F10800.000
G1 F1200
G1 X89.926 Y99.057 E0.37265
G1 X89.548 Y99.034 E0.01188
G1 X89.052 Y98.863 E0.01646
G1 X88.772 Y98.681 E0.01046
G1 X88.230 Y98.117 E0.02454
G1 X88.016 Y97.694 E0.01484
G1 X87.926 Y97.286 E0.01311
