; generated by PrusaSlicer 2.1.0+linux64 on 2019-10-07 at 11:51:20 UTC

; 

; external perimeters extrusion width = 0.45mm
; perimeters extrusion width = 0.45mm
; infill extrusion width = 0.45mm
; solid infill extrusion width = 0.45mm
; top infill extrusion width = 0.40mm
; support material extrusion width = 0.35mm
; first layer extrusion width = 0.42mm

M73 P0 R161
M73 Q0 S162
M201 X1000 Y1000 Z1000 E5000 ; sets maximum accelerations, mm/sec^2
M203 X200 Y200 Z12 E120 ; sets maximum feedrates, mm/sec
M204 P1250 R1250 T1250 ; sets acceleration (P, T) and retract acceleration (R), mm/sec^2
M205 X8.00 Y8.00 Z0.40 E1.50 ; sets the jerk limits, mm/sec
M205 S0 T0 ; sets the minimum extruding and travel feed rate, mm/sec
M107
M862.3 P "MK3" ; printer model check
M862.1 P0.4 ; nozzle diameter check
M115 U3.8.0 ; tell printer latest fw version
G90 ; use absolute coordinates
M83 ; extruder relative mode
M104 S215 ; set extruder temp
M140 S60 ; set bed temp
M190 S60 ; wait for bed temp
M109 S215 ; wait for extruder temp
G28 W ; home all without mesh bed level
G80 ; mesh bed leveling
G1 Y-3.0 F1000.0 ; go outside print area
G92 E0.0
G1 X60.0 E9.0 F1000.0 ; intro line
M73 Q0 S162
M73 P0 R161
G1 X100.0 E12.5 F1000.0 ; intro line
G92 E0.0
M221 S95
G21 ; set units to millimeters
G90 ; use absolute coordinates
M83 ; use relative distances for extrusion
M900 K30 ; Filament gcode
;BEFORE_LAYER_CHANGE
G92 E0.0
;0.2


G1 E-0.80000 F2100.00000
G1 Z0.600 F10800.000
;AFTER_LAYER_CHANGE
;0.2
G1 X85.734 Y70.653
G1 Z0.200
G1 E0.80000 F2100.00000
M204 S1000
G1 F1200
G1 X86.258 Y69.921 E0.02822
G1 X86.936 Y69.497 E0.02507
G1 X87.721 Y69.345 E0.02507
G1 X162.399 Y69.345 E2.34149
G1 X163.226 Y69.507 E0.02642
G1 X163.930 Y69.970 E0.02642
G1 X164.408 Y70.664 E0.02642
G1 X164.587 Y71.488 E0.02642
G1 X164.588 Y137.929 E2.08322
G1 X164.398 Y138.798 E0.02788
G1 X163.879 Y139.519 E0.02788
G1 X163.201 Y139.943 E0.02507
G1 X162.416 Y140.095 E0.02507
G1 X87.734 Y140.095 E2.34161
G1 X86.857 Y139.910 E0.02810
G1 X86.125 Y139.387 E0.02822
G1 X85.701 Y138.709 E0.02507
G1 X85.549 Y137.927 E0.02496
G1 X85.549 Y71.530 E2.08185
G1 X85.722 Y70.712 E0.02622
G1 F8640
G1 X86.258 Y69.921 E-0.22055
G1 X86.936 Y69.497 E-0.18462
G1 X87.721 Y69.345 E-0.18462
G1 X88.458 Y69.345 E-0.17021
G1 E-0.04000 F2100.00000
G1 Z0.800 F10800.000
G1 X90.000 Y106.810
G1 Z0.200
G1 E0.80000 F2100.00000
G1 F1200
G1 X90.000 Y113.907 E0.18120
G1 X90.518 Y113.907 E0.01322
G1 X90.518 Y106.953 E0.17755
G1 X91.036 Y106.953 E0.01322
G1 X91.036 Y109.814 E0.07304
G1 X91.168 Y109.470 E0.00941
G1 X91.413 Y109.075 E0.01185
G1 X91.553 Y108.927 E0.00523
G1 X91.553 Y106.953 E0.05039
G1 X92.071 Y106.953 E0.01322
G1 X92.071 Y108.766 E0.04630
G1 X92.589 Y108.766 E0.01322
G1 X92.589 Y106.953 E0.04630
G1 X93.107 Y106.953 E0.01322
G1 X93.107 Y108.766 E0.04630
G1 X93.625 Y108.766 E0.01322
G1 X93.625 Y106.953 E0.04630
G1 X94.142 Y106.953 E0.01322
G1 X94.142 Y108.766 E0.04630
G1 X94.660 Y108.767 E0.01322
G1 X94.660 Y106.953 E0.04630
G1 X95.178 Y106.953 E0.01322
G1 X95.178 Y108.767 E0.04630
G1 X95.696 Y108.767 E0.01322
G1 X95.696 Y106.953 E0.04630
G1 X96.214 Y106.953 E0.01322
G1 X96.214 Y108.767 E0.04630
G1 X96.732 Y108.767 E0.01322
G1 X96.732 Y106.953 E0.04630
G1 X97.249 Y106.953 E0.01322
G1 X97.249 Y109.017 E0.05269
G1 X97.393 Y109.201 E0.00598
G1 X97.342 Y109.403 E0.00531
G1 X97.352 Y109.485 E0.00212
G1 X97.581 Y109.715 E0.00829
G1 X97.428 Y109.876 E0.00567
G1 X97.767 Y109.876 E0.00865
G1 X97.767 Y106.953 E0.07464
G1 X98.285 Y106.953 E0.01322
G1 X98.285 Y109.876 E0.07464
G1 X98.803 Y109.876 E0.01322
G1 X98.803 Y106.953 E0.07464
G1 X99.321 Y106.953 E0.01322
G1 X99.321 Y109.876 E0.07464
G1 X99.838 Y109.876 E0.01322
G1 X99.838 Y106.953 E0.07464
G1 X100.356 Y106.953 E0.01322
G1 X100.356 Y109.876 E0.07464
G1 X100.874 Y109.876 E0.01322
G1 X100.874 Y106.953 E0.07464
G1 X101.392 Y106.953 E0.01322
G1 X101.392 Y109.876 E0.07464
G1 X101.910 Y109.876 E0.01322
G1 X101.910 Y106.953 E0.07464
G1 X102.427 Y106.953 E0.01322
G1 X102.427 Y109.876 E0.07464
G1 X102.945 Y109.876 E0.01322
G1 X102.945 Y106.953 E0.07464
G1 X103.463 Y106.953 E0.01322
G1 X103.463 Y109.876 E0.07464
G1 X103.981 Y109.876 E0.01322
G1 X103.981 Y106.953 E0.07464
G1 X104.499 Y106.953 E0.01322
G1 X104.499 Y109.876 E0.07464
G1 X105.016 Y109.876 E0.01322
G1 X105.016 Y106.953 E0.07464
G1 X105.534 Y106.953 E0.01322
G1 X105.534 Y109.876 E0.07464
G1 X106.052 Y109.876 E0.01322
G1 X106.052 Y106.953 E0.07464
G1 X106.570 Y106.953 E0.01322
G1 X106.570 Y109.876 E0.07464
G1 X107.088 Y109.876 E0.01322
G1 X107.088 Y106.953 E0.07464
G1 X107.606 Y106.953 E0.01322
G1 X107.606 Y109.876 E0.07464
G1 X108.123 Y109.876 E0.01322
G1 X108.123 Y106.953 E0.07464
G1 X108.641 Y106.953 E0.01322
G1 X108.641 Y109.876 E0.07464
G1 X109.159 Y109.876 E0.01322
G1 X109.159 Y106.953 E0.07464
G1 X109.677 Y106.953 E0.01322
G1 X109.677 Y109.876 E0.07464
G1 X110.195 Y109.876 E0.01322
G1 X110.195 Y106.953 E0.07464
G1 X110.712 Y106.953 E0.01322
G1 X110.712 Y109.876 E0.07464
G1 X111.230 Y109.876 E0.01322
G1 X111.230 Y106.953 E0.07464
G1 X111.748 Y106.953 E0.01322
G1 X111.748 Y109.876 E0.07464
G1 X112.266 Y109.876 E0.01322
G1 X112.266 Y106.953 E0.07464
G1 X112.784 Y106.953 E0.01322
G1 X112.784 Y109.876 E0.07464
G1 X113.301 Y109.876 E0.01322
G1 X113.301 Y106.953 E0.07464
G1 X113.819 Y106.953 E0.01322
G1 X113.819 Y109.876 E0.07464
G1 X114.337 Y109.876 E0.01322
G1 X114.337 Y106.953 E0.07464
G1 X114.855 Y106.953 E0.01322
G1 X114.855 Y109.876 E0.07464
G1 X115.373 Y109.876 E0.01322
G1 X115.373 Y106.953 E0.07464
G1 X115.890 Y106.953 E0.01322
G1 X115.890 Y109.876 E0.07464
G1 X116.408 Y109.876 E0.01322
G1 X116.408 Y106.953 E0.07464
G1 X116.926 Y106.953 E0.01322
G1 X116.926 Y109.876 E0.07464
G1 X117.444 Y109.876 E0.01322
G1 X117.444 Y106.953 E0.07464
G1 X117.962 Y106.953 E0.01322
G1 X117.962 Y109.876 E0.07464
G1 X118.479 Y109.876 E0.01322
G1 X118.479 Y106.953 E0.07464
G1 X118.997 Y106.953 E0.01322
G1 X118.997 Y109.876 E0.07464
G1 X119.515 Y109.876 E0.01322
G1 X119.515 Y106.953 E0.07464
G1 X120.033 Y106.953 E0.01322
G1 X120.033 Y109.876 E0.07464
G1 X120.551 Y109.876 E0.01322
G1 X120.551 Y106.953 E0.07464
G1 X121.069 Y106.953 E0.01322
G1 X121.069 Y109.876 E0.07464
G1 X121.586 Y109.876 E0.01322
G1 X121.586 Y106.953 E0.07464
G1 X122.104 Y106.953 E0.01322
G1 X122.104 Y109.876 E0.07464
G1 X122.622 Y109.876 E0.01322
G1 X122.622 Y106.953 E0.07464
G1 X123.140 Y106.953 E0.01322
G1 X123.140 Y109.876 E0.07464
G1 X123.658 Y109.876 E0.01322
G1 X123.658 Y106.953 E0.07464
G1 X124.175 Y106.953 E0.01322
G1 X124.175 Y109.876 E0.07464
G1 X124.693 Y109.876 E0.01322
G1 X124.693 Y106.953 E0.07464
G1 X125.211 Y106.953 E0.01322
G1 X125.211 Y109.876 E0.07464
G1 X125.729 Y109.876 E0.01322
G1 X125.729 Y106.953 E0.07464
G1 X126.247 Y106.953 E0.01322
G1 X126.247 Y109.876 E0.07464
G1 X126.764 Y109.876 E0.01322
G1 X126.764 Y106.953 E0.07464
G1 X127.282 Y106.953 E0.01322
G1 X127.282 Y109.876 E0.07464
G1 X127.800 Y109.876 E0.01322
G1 X127.800 Y106.953 E0.07464
G1 X128.318 Y106.953 E0.01322
G1 X128.318 Y109.876 E0.07464
G1 X128.836 Y109.876 E0.01322
G1 X128.836 Y106.953 E0.07464
G1 X129.353 Y106.953 E0.01322
G1 X129.353 Y109.876 E0.07464
G1 X129.871 Y109.876 E0.01322
G1 X129.871 Y106.953 E0.07464
G1 X130.389 Y106.953 E0.01322
G1 X130.389 Y109.876 E0.07464
G1 X130.907 Y109.876 E0.01322
G1 X130.907 Y106.953 E0.07464
G1 X131.425 Y106.953 E0.01322
G1 X131.425 Y109.876 E0.07464
G1 X131.943 Y109.876 E0.01322
G1 X131.943 Y106.953 E0.07464
G1 X132.460 Y106.953 E0.01322
G1 X132.460 Y109.876 E0.07464
G1 X132.978 Y109.876 E0.01322
G1 X132.978 Y106.953 E0.07464
G1 X133.496 Y106.953 E0.01322
G1 X133.496 Y109.876 E0.07464
G1 X134.014 Y109.876 E0.01322
G1 X134.014 Y106.953 E0.07464
G1 X134.532 Y106.953 E0.01322
G1 X134.532 Y109.876 E0.07464
G1 X135.049 Y109.876 E0.01322
G1 X135.049 Y106.953 E0.07464
G1 X135.567 Y106.953 E0.01322
G1 X135.567 Y109.876 E0.07464
G1 X136.085 Y109.876 E0.01322
G1 X136.085 Y106.953 E0.07464
G1 X136.603 Y106.953 E0.01322
G1 X136.603 Y109.876 E0.07464
G1 X137.121 Y109.876 E0.01322
G1 X137.121 Y106.953 E0.07464
G1 X137.638 Y106.953 E0.01322
G1 X137.638 Y109.876 E0.07464
G1 X138.156 Y109.876 E0.01322
G1 X138.156 Y106.953 E0.07464
G1 X138.674 Y106.953 E0.01322
G1 X138.674 Y109.876 E0.07464
G1 X139.192 Y109.876 E0.01322
G1 X139.192 Y106.953 E0.07464
G1 X139.710 Y106.953 E0.01322
G1 X139.710 Y109.876 E0.07464
G1 X140.227 Y109.876 E0.01322
G1 X140.227 Y106.953 E0.07464
G1 X140.745 Y106.953 E0.01322
G1 X140.745 Y109.876 E0.07464
G1 X141.263 Y109.876 E0.01322
G1 X141.263 Y106.953 E0.07464
G1 X141.781 Y106.953 E0.01322
G1 X141.781 Y109.876 E0.07464
G1 X142.299 Y109.876 E0.01322
G1 X142.299 Y106.953 E0.07464
G1 X142.817 Y106.953 E0.01322
G1 X142.817 Y109.876 E0.07464
G1 X143.334 Y109.876 E0.01322
G1 X143.334 Y106.953 E0.07464
G1 X143.852 Y106.953 E0.01322
G1 X143.852 Y109.876 E0.07464
G1 X144.370 Y109.876 E0.01322
G1 X144.370 Y106.953 E0.07464
G1 X144.888 Y106.953 E0.01322
G1 X144.888 Y109.876 E0.07464
G1 X145.406 Y109.876 E0.01322
G1 X145.406 Y106.953 E0.07464
G1 X145.923 Y106.953 E0.01322
G1 X145.923 Y109.876 E0.07464
G1 X146.441 Y109.876 E0.01322
G1 X146.441 Y106.953 E0.07464
G1 X146.959 Y106.953 E0.01322
G1 X146.959 Y109.876 E0.07464
G1 X147.477 Y109.876 E0.01322
G1 X147.477 Y106.953 E0.07464
G1 X147.995 Y106.953 E0.01322
G1 X147.995 Y109.876 E0.07464
G1 X148.512 Y109.876 E0.01322
G1 X148.512 Y106.953 E0.07464
G1 X149.030 Y106.953 E0.01322
G1 X149.030 Y109.876 E0.07464
G1 X149.548 Y109.876 E0.01322
G1 X149.548 Y106.953 E0.07464
G1 X150.066 Y106.953 E0.01322
G1 X150.066 Y109.876 E0.07464
G1 X150.584 Y109.876 E0.01322
G1 X150.584 Y106.953 E0.07464
G1 X151.101 Y106.953 E0.01322
G1 X151.101 Y109.876 E0.07464
G1 X151.619 Y109.876 E0.01322
G1 X151.619 Y106.953 E0.07464
G1 X152.137 Y106.953 E0.01322
G1 X152.137 Y109.876 E0.07464
G1 X152.572 Y109.876 E0.01110
G1 X152.419 Y109.715 E0.00567
G1 X152.633 Y109.512 E0.00755
G1 X152.655 Y109.458 E0.00148
G1 X152.655 Y106.953 E0.06396
G1 X153.173 Y106.953 E0.01322
G1 X153.173 Y108.767 E0.04630
G1 X153.691 Y108.767 E0.01322
G1 X153.691 Y106.953 E0.04630
G1 X154.208 Y106.953 E0.01322
G1 X154.208 Y108.767 E0.04630
G1 X154.726 Y108.767 E0.01322
G1 X154.726 Y106.953 E0.04630
G1 X155.244 Y106.953 E0.01322
G1 X155.244 Y108.767 E0.04630
G1 X155.762 Y108.767 E0.01322
G1 X155.762 Y106.953 E0.04630
G1 X156.280 Y106.953 E0.01322
G1 X156.280 Y108.766 E0.04630
G1 X156.797 Y108.766 E0.01322
G1 X156.797 Y106.953 E0.04630
G1 X157.315 Y106.953 E0.01322
G1 X157.315 Y108.766 E0.04630
G1 X157.833 Y108.766 E0.01322
G1 X157.833 Y106.953 E0.04630
G1 X158.351 Y106.953 E0.01322
G1 X158.351 Y108.860 E0.04870
G1 X158.553 Y109.032 E0.00676
G1 X158.869 Y109.553 E0.01558
G1 X158.869 Y106.953 E0.06639
G1 X159.386 Y106.953 E0.01322
G1 X159.386 Y114.050 E0.18120
G1 F8640
G1 X159.386 Y110.758 E-0.76000
G1 E-0.04000 F2100.00000
G1 Z0.800 F10800.000
G1 X158.628 Y111.550
G1 Z0.200
G1 E0.80000 F2100.00000
G1 F1200
G1 X158.628 Y111.013 E0.01684
G1 X158.527 Y110.748 E0.00888
G1 X158.293 Y110.370 E0.01393
G1 X158.628 Y110.285 E0.01084
G1 X158.628 Y109.482 E0.02520
G1 X158.869 Y110.436 F10800.000
G1 F1200
G1 X158.869 Y111.071 E0.01622
G1 F8640
G1 X158.869 Y110.436 E-0.14665
G1 E-0.65335 F2100.00000
G1 Z0.800 F10800.000
G1 X159.383 Y106.775
G1 Z0.200
G1 E0.80000 F2100.00000
G1 F1200
G1 X159.383 Y71.534 E1.10498
G1 X158.628 Y71.534 E0.02365
G1 X158.628 Y106.606 E1.09966
G1 X157.874 Y106.606 E0.02365
G1 X157.874 Y71.534 E1.09966
G1 X157.120 Y71.534 E0.02365
G1 X157.120 Y106.606 E1.09966
G1 X156.366 Y106.606 E0.02365
G1 X156.366 Y71.534 E1.09966
G1 X155.612 Y71.534 E0.02365
G1 X155.612 Y106.606 E1.09966
G1 X154.858 Y106.606 E0.02365
G1 X154.858 Y71.534 E1.09966
G1 X154.104 Y71.534 E0.02365
G1 X154.104 Y106.606 E1.09966
G1 X153.349 Y106.606 E0.02365
G1 X153.349 Y71.534 E1.09966
M73 Q0 S161
M73 P0 R160
G1 X152.595 Y71.534 E0.02365
G1 X152.595 Y106.606 E1.09966
G1 X151.841 Y106.606 E0.02365
G1 X151.841 Y71.534 E1.09966
G1 X151.087 Y71.534 E0.02365
G1 X151.087 Y106.606 E1.09966
G1 X150.333 Y106.606 E0.02365
G1 X150.333 Y71.534 E1.09966
G1 X149.579 Y71.534 E0.02365
G1 X149.579 Y106.606 E1.09966
G1 X148.824 Y106.606 E0.02365
G1 X148.824 Y71.534 E1.09966
G1 X148.070 Y71.534 E0.02365
G1 X148.070 Y106.606 E1.09966
G1 X147.316 Y106.606 E0.02365
G1 X147.316 Y71.534 E1.09966
G1 X146.562 Y71.534 E0.02365
G1 X146.562 Y106.606 E1.09966
G1 X145.808 Y106.606 E0.02365
G1 X145.808 Y71.534 E1.09966
G1 X145.054 Y71.534 E0.02365
G1 X145.054 Y106.606 E1.09966
G1 X144.299 Y106.606 E0.02365
G1 X144.299 Y71.534 E1.09966
G1 X143.545 Y71.534 E0.02365
G1 X143.545 Y106.606 E1.09966
G1 X142.791 Y106.606 E0.02365
G1 X142.791 Y71.534 E1.09966
G1 X142.037 Y71.534 E0.02365
G1 X142.037 Y106.606 E1.09966
G1 X141.283 Y106.606 E0.02365
G1 X141.283 Y71.534 E1.09966
G1 X140.529 Y71.534 E0.02365
G1 X140.529 Y106.606 E1.09966
G1 X139.774 Y106.606 E0.02365
G1 X139.774 Y71.534 E1.09966
G1 X139.020 Y71.534 E0.02365
G1 X139.020 Y106.606 E1.09966
G1 X138.266 Y106.606 E0.02365
G1 X138.266 Y71.534 E1.09966
G1 X137.512 Y71.534 E0.02365
G1 X137.512 Y106.606 E1.09966
G1 X136.758 Y106.606 E0.02365
G1 X136.758 Y71.534 E1.09966
G1 X136.004 Y71.534 E0.02365
G1 X136.004 Y106.606 E1.09966
G1 X135.250 Y106.606 E0.02365
G1 X135.250 Y71.534 E1.09966
G1 X134.495 Y71.534 E0.02365
G1 X134.495 Y106.606 E1.09966
G1 X133.741 Y106.606 E0.02365
G1 X133.741 Y71.534 E1.09966
G1 X132.987 Y71.534 E0.02365
G1 X132.987 Y106.606 E1.09966
G1 X132.233 Y106.606 E0.02365
G1 X132.233 Y71.534 E1.09966
G1 X131.479 Y71.534 E0.02365
G1 X131.479 Y106.606 E1.09966
G1 X130.725 Y106.606 E0.02365
G1 X130.725 Y71.534 E1.09966
G1 X129.970 Y71.534 E0.02365
G1 X129.970 Y106.606 E1.09966
G1 X129.216 Y106.606 E0.02365
G1 X129.216 Y71.534 E1.09966
G1 X128.462 Y71.534 E0.02365
G1 X128.462 Y106.606 E1.09966
G1 X127.708 Y106.606 E0.02365
G1 X127.708 Y71.534 E1.09966
M73 Q1 S160
M73 P1 R159
G1 X126.954 Y71.534 E0.02365
G1 X126.954 Y106.606 E1.09966
G1 X126.200 Y106.606 E0.02365
G1 X126.200 Y71.534 E1.09966
G1 X125.445 Y71.534 E0.02365
G1 X125.445 Y106.606 E1.09966
G1 X124.691 Y106.606 E0.02365
G1 X124.691 Y71.534 E1.09966
G1 X123.937 Y71.534 E0.02365
G1 X123.937 Y106.606 E1.09966
G1 X123.183 Y106.606 E0.02365
G1 X123.183 Y71.534 E1.09966
G1 X122.429 Y71.534 E0.02365
G1 X122.429 Y106.606 E1.09966
G1 X121.675 Y106.606 E0.02365
G1 X121.675 Y71.534 E1.09966
G1 X120.921 Y71.534 E0.02365
G1 X120.921 Y106.606 E1.09966
G1 X120.166 Y106.606 E0.02365
G1 X120.166 Y71.534 E1.09966
G1 X119.412 Y71.534 E0.02365
G1 X119.412 Y106.606 E1.09966
G1 X118.658 Y106.606 E0.02365
G1 X118.658 Y71.534 E1.09966
G1 X117.904 Y71.534 E0.02365
G1 X117.904 Y106.606 E1.09966
G1 X117.150 Y106.606 E0.02365
G1 X117.150 Y71.534 E1.09966
G1 X116.396 Y71.534 E0.02365
G1 X116.396 Y106.606 E1.09966
G1 X115.641 Y106.606 E0.02365
G1 X115.641 Y71.534 E1.09966
G1 X114.887 Y71.534 E0.02365
G1 X114.887 Y106.606 E1.09966
G1 X114.133 Y106.606 E0.02365
G1 X114.133 Y71.534 E1.09966
G1 X113.379 Y71.534 E0.02365
G1 X113.379 Y106.606 E1.09966
G1 X112.625 Y106.606 E0.02365
G1 X112.625 Y71.534 E1.09966
G1 X111.871 Y71.534 E0.02365
G1 X111.871 Y106.606 E1.09966
G1 X111.116 Y106.606 E0.02365
G1 X111.116 Y71.534 E1.09966
G1 X110.362 Y71.534 E0.02365
G1 X110.362 Y106.606 E1.09966
G1 X109.608 Y106.606 E0.02365
G1 X109.608 Y71.534 E1.09966
G1 X108.854 Y71.534 E0.02365
G1 X108.854 Y106.606 E1.09966
G1 X108.100 Y106.606 E0.02365
G1 X108.100 Y71.534 E1.09966
G1 X107.346 Y71.534 E0.02365
G1 X107.346 Y106.606 E1.09966
G1 X106.591 Y106.606 E0.02365
G1 X106.591 Y71.534 E1.09966
G1 X105.837 Y71.534 E0.02365
G1 X105.837 Y106.606 E1.09966
G1 X105.083 Y106.606 E0.02365
G1 X105.083 Y71.534 E1.09966
G1 X104.329 Y71.534 E0.02365
G1 X104.329 Y106.606 E1.09966
G1 X103.575 Y106.606 E0.02365
G1 X103.575 Y71.534 E1.09966
G1 X102.821 Y71.534 E0.02365
G1 X102.821 Y106.606 E1.09966
G1 X102.067 Y106.606 E0.02365
G1 X102.067 Y71.534 E1.09966
M73 Q1 S159
M73 P1 R158
G1 X101.312 Y71.534 E0.02365
G1 X101.312 Y106.606 E1.09966
G1 X100.558 Y106.606 E0.02365
G1 X100.558 Y71.534 E1.09966
G1 X99.804 Y71.534 E0.02365
