; generated by PrusaSlicer 2.1.0+linux64 on 2019-10-10 at 07:47:58 UTC

; 

; external perimeters extrusion width = 0.45mm
; perimeters extrusion width = 0.45mm
; infill extrusion width = 0.45mm
; solid infill extrusion width = 0.45mm
; top infill extrusion width = 0.40mm
; support material extrusion width = 0.35mm
; first layer extrusion width = 0.42mm

M73 P0 R273
M73 Q0 S275
M201 X1000 Y1000 Z1000 E5000 ; sets maximum accelerations, mm/sec^2
M203 X200 Y200 Z12 E120 ; sets maximum feedrates, mm/sec
M204 P1250 R1250 T1250 ; sets acceleration (P, T) and retract acceleration (R), mm/sec^2
M205 X8.00 Y8.00 Z0.40 E1.50 ; sets the jerk limits, mm/sec
M205 S0 T0 ; sets the minimum extruding and travel feed rate, mm/sec
M107
M862.3 P "MK3" ; printer model check
M862.1 P0.4 ; nozzle diameter check
M115 U3.8.0 ; tell printer latest fw version
G90 ; use absolute coordinates
M83 ; extruder relative mode
M104 S215 ; set extruder temp
M140 S60 ; set bed temp
M190 S60 ; wait for bed temp
M109 S215 ; wait for extruder temp
G28 W ; home all without mesh bed level
G80 ; mesh bed leveling
G1 Y-3.0 F1000.0 ; go outside print area
G92 E0.0
G1 X60.0 E9.0 F1000.0 ; intro line
M73 Q0 S275
M73 P0 R272
G1 X100.0 E12.5 F1000.0 ; intro line
G92 E0.0
M221 S95
G21 ; set units to millimeters
G90 ; use absolute coordinates
M83 ; use relative distances for extrusion
M900 K30 ; Filament gcode
;BEFORE_LAYER_CHANGE
G92 E0.0
;0.2


G1 E-0.80000 F2100.00000
G1 Z0.600 F10800.000
;AFTER_LAYER_CHANGE
;0.2
G1 X86.584 Y83.491
G1 Z0.200
G1 E0.80000 F2100.00000
M204 S1000
G1 F1200
G1 X87.706 Y83.358 E0.03541
G1 X162.400 Y83.358 E2.34197
G1 X163.364 Y83.450 E0.03036
G1 X164.288 Y83.721 E0.03019
G1 X165.144 Y84.161 E0.03019
G1 X165.902 Y84.755 E0.03019
G1 X166.535 Y85.480 E0.03019
G1 X167.020 Y86.312 E0.03019
G1 X167.340 Y87.221 E0.03019
G1 X167.483 Y88.173 E0.03019
G1 X167.474 Y120.456 E1.01221
G1 X167.200 Y121.750 E0.04148
G1 X166.604 Y122.925 E0.04130
G1 X165.723 Y123.911 E0.04148
G1 X164.622 Y124.635 E0.04130
G1 X163.557 Y125.012 E0.03541
G1 X162.436 Y125.145 E0.03541
G1 X89.844 Y125.143 E2.27606
G1 X86.445 Y124.942 E0.10676
G1 X85.095 Y124.594 E0.04373
G1 X84.271 Y124.163 E0.02915
G1 X83.543 Y123.594 E0.02897
G1 X82.927 Y122.898 E0.02915
G1 X82.450 Y122.107 E0.02897
G1 X82.021 Y120.791 E0.04338
G1 X79.658 Y106.671 E0.44888
G1 X79.647 Y94.996 E0.36609
G1 X79.766 Y94.236 E0.02410
G1 X79.998 Y93.504 E0.02410
G1 X83.237 Y86.071 E0.25421
G1 X83.666 Y85.394 E0.02514
G1 X84.200 Y84.788 E0.02532
G1 X84.823 Y84.275 E0.02532
G1 X85.520 Y83.867 E0.02532
G1 X86.528 Y83.511 E0.03352
G1 F8640
G1 X87.706 Y83.358 E-0.27427
G1 X89.810 Y83.358 E-0.48573
G1 E-0.04000 F2100.00000
G1 Z0.800 F10800.000
G1 X102.432 Y90.510
G1 Z0.200
G1 E0.80000 F2100.00000
G1 F1200
G1 X147.712 Y90.500 E1.41969
G1 X147.737 Y87.680 E0.08843
G1 X148.071 Y86.519 E0.03789
G1 X148.672 Y85.480 E0.03765
G1 X149.548 Y84.599 E0.03894
G1 X150.558 Y83.970 E0.03730
G1 X152.121 Y83.547 E0.05078
G1 X162.884 Y83.547 E0.33746
G1 X164.862 Y84.175 E0.06509
G1 X165.545 Y84.683 E0.02667
G1 X166.530 Y85.763 E0.04585
G1 X166.987 Y86.682 E0.03218
G1 X167.302 Y87.994 E0.04231
G1 X167.302 Y120.590 E1.02202
G1 X166.722 Y122.403 E0.05969
G1 X166.218 Y123.091 E0.02672
G1 X165.560 Y123.749 E0.02918
G1 X164.445 Y124.424 E0.04087
G1 X163.291 Y124.738 E0.03749
G1 X162.259 Y124.759 E0.03238
G1 X161.992 Y124.787 E0.00841
G1 X159.066 Y124.787 E0.09176
G1 X158.461 Y124.762 E0.01898
G1 X158.222 Y124.787 E0.00755
G1 X90.437 Y124.787 E2.12532
G1 X89.833 Y124.762 E0.01898
G1 X89.593 Y124.787 E0.00755
G1 X86.545 Y124.787 E0.09557
G1 X84.550 Y124.148 E0.06570
G1 X83.836 Y123.605 E0.02811
G1 X82.898 Y122.561 E0.04402
G1 X82.389 Y121.526 E0.03615
G1 X82.150 Y120.484 E0.03353
G1 X82.129 Y110.210 E0.32215
G1 X81.754 Y109.987 E0.01367
G1 X80.658 Y108.882 E0.04883
G1 X80.141 Y107.946 E0.03351
G1 X79.853 Y106.911 E0.03369
G1 X79.819 Y95.071 E0.37122
G1 X79.919 Y94.279 E0.02503
G1 X80.704 Y92.563 E0.05917
G1 X81.815 Y91.435 E0.04964
G1 X82.848 Y90.878 E0.03681
G1 X82.883 Y87.650 E0.10121
G1 X83.169 Y86.629 E0.03324
G1 X83.682 Y85.655 E0.03451
G1 X84.796 Y84.511 E0.05007
G1 X85.951 Y83.868 E0.04145
G1 X87.283 Y83.547 E0.04295
G1 X93.341 Y83.549 E0.18995
G1 X98.188 Y83.575 E0.15199
G1 X99.235 Y83.831 E0.03379
G1 X100.538 Y84.548 E0.04665
G1 X101.638 Y85.719 E0.05036
G1 X102.111 Y86.628 E0.03214
G1 X102.407 Y87.718 E0.03539
G1 X102.432 Y90.450 E0.08567
G1 X102.059 Y90.887 F10800.000
G1 F1200
G1 X148.085 Y90.877 E1.44313
G1 X148.114 Y87.710 E0.09933
G1 X148.409 Y86.686 E0.03339
G1 X148.958 Y85.727 E0.03468
G1 X149.768 Y84.905 E0.03615
G1 X150.685 Y84.326 E0.03402
G1 X152.147 Y83.924 E0.04752
G1 X162.855 Y83.924 E0.33575
G1 X164.664 Y84.497 E0.05950
G1 X165.280 Y84.952 E0.02402
G1 X166.205 Y85.957 E0.04283
G1 X166.626 Y86.793 E0.02934
G1 X166.925 Y88.017 E0.03951
G1 X166.925 Y120.561 E1.02038
G1 X166.399 Y122.206 E0.05415
G1 X165.941 Y122.835 E0.02439
G1 X165.310 Y123.465 E0.02797
G1 X164.275 Y124.087 E0.03786
G1 X163.218 Y124.367 E0.03429
G1 X162.235 Y124.382 E0.03081
G1 X161.981 Y124.410 E0.00801
G1 X159.070 Y124.410 E0.09129
G1 X158.448 Y124.384 E0.01952
G1 X158.211 Y124.410 E0.00748
G1 X90.441 Y124.410 E2.12486
G1 X89.819 Y124.384 E0.01952
G1 X89.582 Y124.410 E0.00748
G1 X86.574 Y124.410 E0.09432
G1 X84.751 Y123.828 E0.06001
G1 X84.104 Y123.340 E0.02541
G1 X83.196 Y122.329 E0.04262
G1 X82.751 Y121.420 E0.03172
G1 X82.527 Y120.462 E0.03085
G1 X82.506 Y109.987 E0.32842
G1 X82.001 Y109.701 E0.01819
G1 X80.975 Y108.676 E0.04549
G1 X80.482 Y107.784 E0.03195
G1 X80.223 Y106.836 E0.03081
G1 X80.196 Y95.083 E0.36851
G1 X80.290 Y94.355 E0.02300
G1 X80.996 Y92.804 E0.05345
G1 X82.062 Y91.721 E0.04766
G1 X83.223 Y91.107 E0.04115
G1 X83.260 Y87.680 E0.10747
G1 X83.526 Y86.751 E0.03028
G1 X83.972 Y85.899 E0.03018
G1 X85.047 Y84.794 E0.04833
G1 X86.066 Y84.228 E0.03654
G1 X87.306 Y83.924 E0.04003
G1 X98.123 Y83.947 E0.33917
G1 X99.076 Y84.174 E0.03072
G1 X100.330 Y84.864 E0.04487
G1 X101.343 Y85.956 E0.04673
G1 X101.753 Y86.748 E0.02796
G1 X102.030 Y87.746 E0.03247
G1 X102.058 Y90.827 E0.09660
G1 X101.685 Y91.264 F10800.000
G1 F1200
G1 X148.459 Y91.254 E1.46656
G1 X148.490 Y87.740 E0.11020
G1 X148.764 Y86.815 E0.03025
G1 X149.245 Y85.973 E0.03041
G1 X149.990 Y85.211 E0.03342
G1 X150.815 Y84.681 E0.03073
G1 X152.173 Y84.301 E0.04420
G1 X162.826 Y84.301 E0.33402
G1 X164.466 Y84.820 E0.05394
G1 X165.017 Y85.223 E0.02139
G1 X165.882 Y86.152 E0.03982
G1 X166.265 Y86.906 E0.02651
G1 X166.548 Y88.041 E0.03667
G1 X166.548 Y120.532 E1.01874
G1 X166.076 Y122.009 E0.04863
G1 X165.664 Y122.579 E0.02204
G1 X165.061 Y123.182 E0.02674
G1 X164.106 Y123.748 E0.03480
G1 X163.147 Y123.996 E0.03107
G1 X162.212 Y124.005 E0.02932
G1 X161.970 Y124.033 E0.00763
G1 X159.074 Y124.033 E0.09081
G1 X158.434 Y124.006 E0.02009
G1 X158.199 Y124.033 E0.00740
G1 X90.445 Y124.033 E2.12438
G1 X89.805 Y124.006 E0.02009
G1 X89.571 Y124.033 E0.00740
G1 X86.603 Y124.033 E0.09305
G1 X84.951 Y123.507 E0.05436
G1 X84.372 Y123.074 E0.02268
G1 X83.494 Y122.096 E0.04119
G1 X83.113 Y121.312 E0.02734
G1 X82.904 Y120.438 E0.02816
G1 X82.883 Y109.761 E0.33477
G1 X82.246 Y109.413 E0.02275
G1 X81.291 Y108.468 E0.04215
G1 X80.840 Y107.662 E0.02896
G1 X80.593 Y106.760 E0.02929
G1 X80.573 Y95.095 E0.36577
G1 X80.660 Y94.432 E0.02096
G1 X81.288 Y93.044 E0.04775
G1 X82.310 Y92.007 E0.04566
G1 X83.348 Y91.468 E0.03668
G1 X83.597 Y91.397 E0.00811
G1 X83.636 Y87.711 E0.11559
G1 X83.882 Y86.875 E0.02730
G1 X84.262 Y86.141 E0.02591
G1 X85.298 Y85.077 E0.04657
G1 X86.181 Y84.588 E0.03166
G1 X87.329 Y84.301 E0.03710
G1 X98.059 Y84.319 E0.33644
G1 X98.918 Y84.517 E0.02762
G1 X100.120 Y85.179 E0.04304
G1 X101.048 Y86.192 E0.04306
G1 X101.395 Y86.870 E0.02390
G1 X101.653 Y87.776 E0.02953
G1 X101.685 Y91.204 E0.10750
G1 X101.310 Y91.641 F10800.000
G1 F1200
G1 X148.833 Y91.631 E1.49003
G1 X148.867 Y87.771 E0.12105
G1 X149.119 Y86.945 E0.02707
G1 X149.532 Y86.219 E0.02620
G1 X150.246 Y85.489 E0.03201
G1 X150.946 Y85.036 E0.02617
G1 X152.200 Y84.678 E0.04086
G1 X162.797 Y84.678 E0.33228
G1 X164.270 Y85.143 E0.04843
G1 X164.755 Y85.495 E0.01879
G1 X165.559 Y86.350 E0.03681
G1 X165.906 Y87.020 E0.02366
G1 X166.170 Y88.064 E0.03378
G1 X166.170 Y120.503 E1.01707
G1 X165.753 Y121.814 E0.04314
G1 X165.386 Y122.323 E0.01968
G1 X164.811 Y122.898 E0.02548
M73 Q0 S274
G1 X163.940 Y123.409 E0.03168
G1 X163.079 Y123.625 E0.02784
G1 X162.188 Y123.628 E0.02792
G1 X161.958 Y123.656 E0.00726
G1 X159.078 Y123.656 E0.09031
G1 X158.418 Y123.628 E0.02070
M73 P0 R271
G1 X158.187 Y123.656 E0.00729
G1 X90.449 Y123.656 E2.12387
G1 X89.790 Y123.628 E0.02070
G1 X89.559 Y123.656 E0.00729
G1 X86.632 Y123.656 E0.09176
G1 X85.150 Y123.185 E0.04876
G1 X84.640 Y122.807 E0.01992
G1 X83.793 Y121.865 E0.03970
G1 X83.462 Y121.170 E0.02415
G1 X83.276 Y120.374 E0.02562
G1 X83.260 Y109.533 E0.33991
G1 X82.489 Y109.124 E0.02734
G1 X81.605 Y108.258 E0.03881
G1 X81.197 Y107.539 E0.02592
G1 X80.964 Y106.685 E0.02775
G1 X80.950 Y95.107 E0.36302
G1 X81.030 Y94.509 E0.01893
G1 X81.582 Y93.283 E0.04215
G1 X82.511 Y92.327 E0.04179
G1 X83.498 Y91.815 E0.03487
G1 X83.971 Y91.700 E0.01527
G1 X84.006 Y87.792 E0.12256
G1 X84.239 Y87.000 E0.02588
G1 X84.583 Y86.341 E0.02329
G1 X85.547 Y85.361 E0.04311
G1 X86.298 Y84.947 E0.02689
G1 X87.353 Y84.678 E0.03414
G1 X97.998 Y84.692 E0.33378
G1 X98.763 Y84.861 E0.02454
G1 X99.865 Y85.458 E0.03931
G1 X100.725 Y86.388 E0.03972
G1 X101.038 Y86.992 E0.02131
G1 X101.284 Y87.854 E0.02812
G1 X101.310 Y91.581 E0.11686
G1 X100.935 Y92.018 F10800.000
G1 F1200
G1 X149.206 Y92.008 E1.51352
G1 X149.244 Y87.803 E0.13186
G1 X149.472 Y87.078 E0.02385
G1 X149.819 Y86.465 E0.02207
G1 X150.501 Y85.767 E0.03060
G1 X151.079 Y85.389 E0.02166
G1 X152.227 Y85.055 E0.03747
G1 X162.768 Y85.055 E0.33052
G1 X164.075 Y85.467 E0.04296
G1 X164.495 Y85.768 E0.01620
G1 X165.238 Y86.549 E0.03380
G1 X165.546 Y87.137 E0.02081
G1 X165.793 Y88.089 E0.03084
G1 X165.793 Y120.473 E1.01539
G1 X165.429 Y121.619 E0.03769
G1 X165.108 Y122.068 E0.01729
G1 X164.563 Y122.613 E0.02419
G1 X163.776 Y123.068 E0.02850
G1 X163.013 Y123.253 E0.02460
G1 X162.164 Y123.251 E0.02662
G1 X161.945 Y123.279 E0.00692
G1 X159.094 Y123.279 E0.08939
G1 X158.904 Y123.258 E0.00602
G1 X158.394 Y123.251 E0.01599
G1 X158.175 Y123.279 E0.00692
G1 X90.466 Y123.279 E2.12296
G1 X90.275 Y123.258 E0.00602
G1 X89.765 Y123.251 E0.01599
G1 X89.546 Y123.279 E0.00692
G1 X86.661 Y123.279 E0.09046
G1 X85.348 Y122.863 E0.04320
G1 X84.905 Y122.539 E0.01720
G1 X84.122 Y121.678 E0.03650
G1 X83.812 Y121.027 E0.02260
G1 X83.649 Y120.311 E0.02301
G1 X83.636 Y109.258 E0.34658
G1 X83.425 Y109.193 E0.00692
G1 X82.732 Y108.834 E0.02447
G1 X81.888 Y108.007 E0.03706
G1 X81.555 Y107.417 E0.02125
G1 X81.334 Y106.610 E0.02623
G1 X81.327 Y95.120 E0.36026
G1 X81.400 Y94.588 E0.01684
G1 X81.910 Y93.471 E0.03850
G1 X82.757 Y92.615 E0.03775
G1 X83.646 Y92.162 E0.03129
G1 X84.347 Y92.005 E0.02252
G1 X84.375 Y87.873 E0.12957
G1 X84.595 Y87.125 E0.02444
G1 X84.902 Y86.543 E0.02063
G1 X85.794 Y85.647 E0.03965
G1 X86.416 Y85.306 E0.02222
G1 X87.377 Y85.055 E0.03116
G1 X97.940 Y85.065 E0.33118
G1 X98.611 Y85.207 E0.02149
G1 X99.612 Y85.739 E0.03555
G1 X100.404 Y86.587 E0.03637
G1 X100.681 Y87.114 E0.01867
G1 X100.914 Y87.932 E0.02668
G1 X100.935 Y91.958 E0.12623
G1 F8640
G1 X104.226 Y91.962 E-0.76000
G1 E-0.04000 F2100.00000
G1 Z0.800 F10800.000
G1 X84.013 Y108.959
G1 Z0.200
G1 E0.80000 F2100.00000
G1 F1200
G1 X83.572 Y108.845 E0.01427
G1 X82.975 Y108.543 E0.02099
G1 X82.171 Y107.757 E0.03526
G1 X81.913 Y107.296 E0.01658
G1 X81.704 Y106.535 E0.02473
G1 X81.704 Y95.133 E0.35748
G1 X81.769 Y94.668 E0.01472
G1 X82.237 Y93.662 E0.03481
G1 X82.999 Y92.905 E0.03368
G1 X83.791 Y92.511 E0.02772
G1 X84.324 Y92.397 E0.01708
G1 X84.722 Y92.387 E0.01250
G1 X84.744 Y87.953 E0.13903
G1 X84.951 Y87.250 E0.02298
G1 X85.221 Y86.747 E0.01791
G1 X86.040 Y85.934 E0.03620
G1 X86.535 Y85.664 E0.01767
G1 X87.403 Y85.432 E0.02816
G1 X97.885 Y85.438 E0.32866
G1 X98.462 Y85.555 E0.01845
G1 X99.361 Y86.022 E0.03176
G1 X100.084 Y86.788 E0.03303
G1 X100.324 Y87.237 E0.01598
G1 X100.544 Y88.011 E0.02521
G1 X100.559 Y92.389 E0.13727
G1 X149.581 Y92.385 E1.53707
G1 X149.613 Y87.887 E0.14104
G1 X149.812 Y87.242 E0.02118
G1 X150.106 Y86.710 E0.01907
G1 X150.757 Y86.045 E0.02916
G1 X151.215 Y85.742 E0.01721
G1 X152.255 Y85.432 E0.03403
G1 X162.739 Y85.432 E0.32874
G1 X163.881 Y85.792 E0.03754
G1 X164.237 Y86.043 E0.01365
G1 X164.919 Y86.751 E0.03080
G1 X165.188 Y87.256 E0.01796
G1 X165.416 Y88.114 E0.02784
G1 X165.416 Y120.444 E1.01369
G1 X165.104 Y121.425 E0.03228
G1 X164.830 Y121.813 E0.01488
G1 X164.314 Y122.328 E0.02286
G1 X163.615 Y122.726 E0.02524
G1 X162.951 Y122.880 E0.02135
G1 X162.140 Y122.874 E0.02544
G1 X161.932 Y122.902 E0.00659
G1 X159.106 Y122.902 E0.08861
G1 X158.929 Y122.881 E0.00560
G1 X158.370 Y122.873 E0.01752
G1 X158.161 Y122.902 E0.00661
G1 X90.477 Y122.902 E2.12218
G1 X90.300 Y122.881 E0.00560
G1 X89.741 Y122.873 E0.01752
G1 X89.533 Y122.902 E0.00661
G1 X86.690 Y122.902 E0.08913
G1 X85.543 Y122.539 E0.03771
G1 X85.170 Y122.270 E0.01442
G1 X84.421 Y121.446 E0.03493
G1 X84.163 Y120.889 E0.01925
G1 X84.021 Y120.250 E0.02051
G1 X84.013 Y109.019 E0.35215
G1 X84.390 Y108.598 F10800.000
G1 F1200
G1 X84.094 Y108.588 E0.00929
G1 X83.722 Y108.498 E0.01201
G1 X83.172 Y108.221 E0.01930
G1 X82.456 Y107.509 E0.03164
G1 X82.269 Y107.172 E0.01210
G1 X82.082 Y106.508 E0.02162
G1 X82.082 Y95.147 E0.35621
G1 X82.138 Y94.751 E0.01256
G1 X82.562 Y93.855 E0.03108
G1 X83.240 Y93.197 E0.02962
G1 X83.892 Y92.875 E0.02282
G1 X84.382 Y92.770 E0.01570
G1 X85.098 Y92.765 E0.02245
G1 X85.114 Y88.034 E0.14833
G1 X85.307 Y87.377 E0.02148
G1 X85.538 Y86.953 E0.01513
G1 X86.284 Y86.222 E0.03276
G1 X86.656 Y86.022 E0.01324
G1 X87.429 Y85.809 E0.02513
G1 X97.833 Y85.812 E0.32622
G1 X98.317 Y85.904 E0.01544
G1 X99.111 Y86.307 E0.02792
G1 X99.765 Y86.991 E0.02969
G1 X99.967 Y87.362 E0.01322
G1 X100.174 Y88.089 E0.02371
G1 X100.182 Y92.759 E0.14644
G1 X100.934 Y92.772 E0.02359
G1 X149.957 Y92.762 E1.53707
G1 X149.981 Y87.972 E0.15021
G1 X150.167 Y87.371 E0.01972
G1 X150.394 Y86.955 E0.01488
G1 X151.013 Y86.322 E0.02775
G1 X151.353 Y86.094 E0.01282
G1 X152.284 Y85.809 E0.03052
G1 X162.711 Y85.809 E0.32693
G1 X163.690 Y86.118 E0.03219
G1 X163.980 Y86.321 E0.01111
G1 X164.601 Y86.955 E0.02781
G1 X164.831 Y87.378 E0.01510
G1 X165.039 Y88.140 E0.02478
G1 X165.039 Y120.415 E1.01196
G1 X164.778 Y121.233 E0.02692
G1 X164.551 Y121.558 E0.01243
G1 X164.067 Y122.043 E0.02148
G1 X163.457 Y122.383 E0.02191
G1 X162.893 Y122.507 E0.01809
G1 X162.115 Y122.496 E0.02440
G1 X161.917 Y122.525 E0.00626
G1 X159.118 Y122.525 E0.08777
G1 X158.955 Y122.505 E0.00515
G1 X158.344 Y122.496 E0.01916
G1 X158.147 Y122.525 E0.00626
G1 X90.490 Y122.525 E2.12133
G1 X90.327 Y122.505 E0.00515
G1 X89.716 Y122.496 E0.01916
G1 X89.518 Y122.525 E0.00626
G1 X86.719 Y122.525 E0.08777
G1 X85.737 Y122.215 E0.03229
G1 X85.433 Y121.999 E0.01169
G1 X84.750 Y121.260 E0.03153
G1 X84.515 Y120.750 E0.01763
G1 X84.394 Y120.191 E0.01793
G1 X84.390 Y108.658 E0.36160
G1 F8640
G1 X84.094 Y108.588 E-0.07028
G1 X83.722 Y108.498 E-0.08848
G1 X83.172 Y108.221 E-0.14217
G1 X82.456 Y107.509 E-0.23299
G1 X82.269 Y107.172 E-0.08910
G1 X82.108 Y106.601 E-0.13698
G1 E-0.04000 F2100.00000
G1 Z0.800 F10800.000
G1 X99.804 Y93.140
G1 Z0.200
G1 E0.80000 F2100.00000
G1 F1200
G1 X100.826 Y93.140 E0.03204
G1 X100.936 Y93.156 E0.00346
G1 X101.045 Y93.140 E0.00346
G1 X102.335 Y93.140 E0.04044
G1 X102.444 Y93.156 E0.00346
G1 X102.553 Y93.140 E0.00346
G1 X103.843 Y93.140 E0.04044
G1 X103.952 Y93.156 E0.00346
G1 X104.061 Y93.140 E0.00346
G1 X105.351 Y93.140 E0.04044
G1 X105.461 Y93.156 E0.00346
G1 X105.570 Y93.140 E0.00346
G1 X106.860 Y93.140 E0.04044
G1 X106.969 Y93.156 E0.00346
G1 X107.078 Y93.140 E0.00346
G1 X108.368 Y93.140 E0.04044
G1 X108.477 Y93.156 E0.00346
G1 X108.586 Y93.140 E0.00346
G1 X109.876 Y93.140 E0.04044
G1 X109.985 Y93.156 E0.00346
G1 X110.095 Y93.140 E0.00346
G1 X111.385 Y93.140 E0.04044
G1 X111.494 Y93.156 E0.00346
